!!!!SEGMENT: pl-cz--iii-116--003_dankowski-adalbert--vesperae-solenne-laetatus-sum.krn
!!!cenid: 18xx:819
!!!COM: Dankowski, Adalbert
!!!COM-rismID: pe30000793
!!!CDT: ~1760-~1836
!!!CNT: Polish
!!!OPR: Vesperae Solenne
!!!OTL: Laetatus sum
!!!OMV: 003
!!!PDT: 1839
!!!AGN: Sacred; Vespers
!!!SMS-siglum: PL-CZ
!!!SMS-shelfmark: III-116
!!!SMS-shelfwork: 001-003 M
!!!SMS-variant:
!!!SMS-altvar:
!!!NIFC-rismSourceID: 300000114
!!!NIFC-islandoraID: pl-cz:34584
!!!URL-pdf-islandora: https://repozytorium.nifc.pl/islandora/object/pl-cz%3A34584/datastream/PDF/view
!!!URL-scan:
!!!ONB-nifc: UWAGA: części Vesperae: Dixit Dominus, Laudate pueri, Laetatus sum, Nisi Dominus, Magnificat
!!!OMD:
!!!OMD: Allegro
!!!AIN: 1 alto 1 bass 1 clrno 2 cor 1 organ 1 soprn 1 tenor 1 timpa 2 violn
!!!key: D
**kern	**fba	**dynam	**kern	**dynam	**kern	**dynam	**kern	**text	**kern	**text	**kern	**text	**kern	**text	**kern	**kern	**kern	**kern
*part11	*	*part11	*part10	*part10	*part9	*part9	*part8	*part8	*part7	*part7	*part6	*part6	*part5	*part5	*part4	*part1	*part3	*part2
*group5	*	*	*group4	*	*group4	*	*group3	*group3	*group3	*group3	*group3	*group3	*group3	*group3	*group2	*group1	*group1	*group1
*staff11	*	*	*staff10	*	*staff9	*	*staff8	*staff8	*staff7	*staff7	*staff6	*staff6	*staff5	*staff5	*staff4	*staff1	*staff3	*staff2
*I"Organ	*	*	*I"Violino 2do	*	*I"Violino 1mo	*	*I"Baſso	*	*I"Tenor	*	*I"Alto.	*	*I"Cant	*	*I"Tympan	*I"Clarino Principalo.	*I"Corno. 2do ex D.	*I"Corno Obligato 1mo ex D
*mI"Organo	*	*	*mI"Violino II	*	*mI"Violino I	*	*mI"Basso	*	*mI"Tenore	*	*mI"Alto	*	*mI"Soprano	*	*mI"Timpani	*mI"Clarino principale in D	*mI"Corno II in D	*mI"Corno I in D
*I'org	*	*	*I'vl 2	*	*I'vl 1	*	*I'B	*	*I'T	*	*I'A	*	*I'S	*	*I'timp	*I'clno princ in D	*I'cor 2 in D	*I'cor 1 in D
*	*	*	*mI'vl II	*	*mI'vl I	*	*	*	*	*	*	*	*	*	*	*	*mI'cor II in D	*mI'cor I in D
*Iorgan	*	*	*Ivioln	*	*Ivioln	*	*Ibass	*	*Itenor	*	*Ialto	*	*Isoprn	*	*Itimpa	*Iclrno	*Icor	*Icor
*ICklav	*	*	*ICstr	*	*ICstr	*	*ICvox	*	*ICvox	*	*ICvox	*	*ICvox	*	*ICidio	*ICbras	*ICbras	*ICbras
*IGcont	*	*	*	*	*	*	*IGcoro	*	*IGcoro	*	*IGcoro	*	*IGcoro	*	*	*	*	*
*clefF4	*	*	*clefG2	*	*clefG2	*	*clefF4	*	*clefC4	*	*clefC3	*	*clefC1	*	*clefF4	*clefG2	*clefG2	*clefG2
*	*	*	*	*	*	*	*	*	*mclefGv2	*	*mclefG2	*	*mclefG2	*	*	*	*	*
*	*	*	*	*	*	*	*	*	*	*	*	*	*	*	*ITrd-1c-2	*ITrd-1c-2	*ITrd6c10	*ITrd6c10
*k[f#c#]	*	*	*k[f#c#]	*	*k[f#c#]	*	*k[f#c#]	*	*k[c#f#]	*	*k[f#c#]	*	*k[f#c#]	*	*k[f#c#]	*k[f#c#]	*k[f#c#]	*k[f#c#]
*	*	*	*	*	*	*	*	*	*mk[f#c#]	*	*	*	*	*	*	*	*	*
*D:	*	*	*D:	*	*D:	*	*D:	*	*D:	*	*D:	*	*D:	*	*D:	*D:	*D:	*D:
*M3/8	*	*	*M3/8	*	*M3/8	*	*M3/8	*	*M3/8	*	*M3/8	*	*M3/8	*	*M3/8	*M3/8	*M3/8	*M3/8
*all\right	*	*	*all\right	*	*all\right	*below	*all\right	*	*all\right	*	*all\right	*	*all\right	*	*all\right	*all\right	*all\right	*all\right
*	*	*	*	*	*	*	*	*	*	*	*	*	*	*	*	*MM80	*	*
!	!	!	!	!	!	!	!	!	!	!	!	!	!LO:TX:t=P:problem=znaki f# cc#	!	!LO:TX:t=P:problem=kotły w transpozycji	!	!LO:TX:a:i:t=Ex D:mod=	!LO:TX:a:i:t=Ex D.:mod=
!	!	!	!	!LO:DY:t= :mod=%s	!	!	!	!	!	!	!	!	!LO:TX:a:i:t=Solo	!	!	!	!	!
!LO:TX:a:i:t=Allo:mod=	!	!	!LO:TX:a:i:t=Allo:mod=	!null	!LO:TX:a:i:t=Allo in presto:mod=	!LO:DY:rj	!LO:TX:a:i:rj:t=Allo:mod=	!	!LO:TX:a:i:t=Allo:mod=	!	!LO:TX:a:i:t=Allo:mod=	!	!LO:TX:a:i:t=Allo:mod=	!	!LO:TX:a:i:t=Allo:mod=	!LO:TX:a:i:t=Allo:mod=	!LO:TX:a:i:rj:t=Allo:mod=	!LO:TX:a:i:t=Allo:mod=
8r	.	.	8a/	p	8ff#\	p	8r	.	8r	.	8r	.	8ff#\	Lae-	8r	8r	8r	8r
=1	=1	=1	=1	=1	=1	=1	=1	=1	=1	=1	=1	=1	=1	=1	=1	=1	=1	=1
!LO:TX:a:t=P:problem=mixed beam	!	!LO:DY:rj	!	!LO:DY:rj	!	!	!LO:TX:a:t=1:mod=	!	!LO:TX:a:t=1:mod=	!	!	!	!	!	!	!LO:TX:a:t=1:mod=	!LO:TX:a:t=1:mod=	!LO:TX:a:t=1:mod=
!	!	!	!	!LO:MO:mod=.	!	!	!	!	!	!	!	!	!	!	!	!	!	!
8F#\L	.	p	8.a/L	p	8.ff#\L	.	4.r	.	4.r	.	4.r	.	8.ff#\L	-ta-	4.r	4.r	4.r	4.r
8A\	4	.	.	.	.	.	.	.	.	.	.	.	.	.	.	.	.	.
.	.	.	16g/L	.	16ee\L	.	.	.	.	.	.	.	16ee\Jk	.	.	.	.	.
8AA/J	3	.	16f#/	.	16dd\	.	.	.	.	.	.	.	16dd\LL	-tus	.	.	.	.
.	.	.	16g/JJ	.	16ee\JJ	.	.	.	.	.	.	.	16ee\JJ	.	.	.	.	.
=2	=2	=2	=2	=2	=2	=2	=2	=2	=2	=2	=2	=2	=2	=2	=2	=2	=2	=2
!	!	!	!	!	!	!	!	!	!	!	!	!	!	!LO:MO:mod=sum,	!	!	!	!
8D/L	.	.	4a\	.	4ff#\	.	4r	.	4r	.	4r	.	4ff#\	sum	4r	8r	4r	4r
8DD/	.	.	.	.	.	.	.	.	.	.	.	.	.	.	.	8r	.	.
!	!	!	!	!	!	!LO:DY:t= :mod=%s	!	!	!	!	!	!	!	!	!	!	!	!
!	!	!LO:DY:t= :mod=%s	!	!LO:DY:t= :mod=%s	!	!LO:MO:mod=!LO&colon;DY&colon;ed=brack	!	!	!	!	!	!	!	!	!	!	!	!
!	!	!null	!	!null	!	!null	!	!	!	!	!	!	!	!LO:MO:mod=lae-	!	!	!	!
8D/J	.	f	8dd\	f	8ff#\	f	8d\	Lae-	8d\	Lae-	8a\	Lae-	8ff#\	le-	8D/	8dd\	8d\	8f#\
=3	=3	=3	=3	=3	=3	=3	=3	=3	=3	=3	=3	=3	=3	=3	=3	=3	=3	=3
!LO:TX:a:t=P:problem=mixed beam	!	!LO:DY:rj:t=fo:mod=	!	!LO:DY:rj	!	!	!	!	!	!	!	!	!	!	!	!	!	!
!	!	!LO:MO:mod=.	!	!LO:MO:mod=.	!	!	!	!	!	!	!	!	!	!	!	!	!	!
8A\L	4	f	8ddL 8f#\	f	8ff#\L	.	8A\	-ta-	8d\	-ta-	8a\	-ta-	8ff#\	-ta-	8AA/L	8a/L	8d\L	8f#\L
!	!	!	!	!	!	!	!	!LO:MO:mod=-tus,	!	!LO:MO:mod=-tus,	!	!LO:MO:mod=-tus,	!	!LO:MO:mod=-tus,	!	!	!	!
8AA/J	3	.	8cc#J 8e\	.	8ee\J	.	8AA/	-tus	8c#\	-tus	8a\	-tus	8ee\	-tus	8AA/J	8a/J	8A\J	8e\J
8r	.	.	8r	.	8ee\	.	8r	.	8r	.	8r	.	8ee\	lae-	8r	8r	8r	8r
=4	=4	=4	=4	=4	=4	=4	=4	=4	=4	=4	=4	=4	=4	=4	=4	=4	=4	=4
!	!	!	!	!	!	!LO:DY:t= :mod=%s	!	!	!	!	!	!	!	!	!	!	!	!
!	!	!	!	!	!	!LO:MO:mod=!LO&colon;DY&colon;ed=brack	!	!	!	!	!	!	!	!	!	!	!	!
!LO:TX:a:t=P:problem=mixed beam	!	!LO:DY:rj	!	!	!	!null	!	!	!LO:TX:a:t=1:mod=	!	!	!	!	!	!	!	!LO:TX:a:t=1:mod=	!LO:TX:a:t=1:mod=
8AA/L	.	p	8.g/L	p	8.ee\L	p	4.r	.	4.r	.	4.r	.	8.ee\L	-ta-	4.r	4.r	4.r	4.r
8D\	.	.	.	.	.	.	.	.	.	.	.	.	.	.	.	.	.	.
.	.	.	16f#/L	.	16dd\L	.	.	.	.	.	.	.	16dd\Jk	.	.	.	.	.
8DD/J	.	.	16e/	.	16cc#\	.	.	.	.	.	.	.	16cc#\LL	-tus	.	.	.	.
.	.	.	16f#/JJ	.	16dd\JJ	.	.	.	.	.	.	.	16dd\JJ	.	.	.	.	.
=5	=5	=5	=5	=5	=5	=5	=5	=5	=5	=5	=5	=5	=5	=5	=5	=5	=5	=5
!LO:TX:a:t=P:problem=mixed beam	!	!	!	!	!	!	!	!	!	!	!	!	!	!LO:MO:mod=-sum,	!	!	!	!
8AA/L	.	.	4g/	.	4ee\	.	4r	.	4r	.	4r	.	4ee\	sum	4r	4r	4r	4r
8AA/	.	.	.	.	.	.	.	.	.	.	.	.	.	.	.	.	.	.
*	*	*	*	*	*	*	*	*ij	*	*ij	*	*ij	*	*	*	*	*	*
!	!	!LO:DY:t=for:mod=	!	!	!	!LO:DY:t=for:mod=	!	!LO:MO:mod=lae-	!	!LO:MO:mod=lae-	!	!LO:MO:mod=lae-	!	!LO:MO:mod=lae-	!	!	!	!
8A\J	.	f	8g/	f	8ee\	f	8c#\	Lae-	8A\	Lae-	8g\	Lae-	8ee\	le-	8AA/	8a/	8e\	8g\
=6	=6	=6	=6	=6	=6	=6	=6	=6	=6	=6	=6	=6	=6	=6	=6	=6	=6	=6
!LO:TX:a:t=P:problem=mixed beam	!	!	!	!	!	!	!	!	!	!	!	!	!	!	!	!LO:TX:a:t=P:problem=mixed beam	!	!
8d\L	4	.	8g/L	.	8ee\L	.	8d\	-ta-	8A\	-ta-	8g\	-ta-	8ee\	-ta-	8D/L	8dd\L	8e\L	8g\L
!	!	!	!	!	!	!	!	!LO:MO:mod=-tus,	!	!LO:MO:mod=-tus,	!	!LO:MO:mod=-tus,	!	!	!	!	!	!
8D/J	3	.	8f#/J	.	8dd\J	.	8D\	-tus	8A\	-tus	8f#\	-tus	8dd\	-tus	8D/J	8d/J	8d\J	8f#\J
*	*	*	*	*	*	*	*	*Xij	*	*Xij	*	*Xij	*	*	*	*	*	*
8r	.	.	8r	.	16ff#\LL	.	8r	.	8r	.	8r	.	16ff#\LL	in	8r	8r	8r	8r
.	.	.	.	.	16dd\JJ	.	.	.	.	.	.	.	16dd\JJ	.	.	.	.	.
=7	=7	=7	=7	=7	=7	=7	=7	=7	=7	=7	=7	=7	=7	=7	=7	=7	=7	=7
!LO:TX:a:t=P:problem=mixed beam	!	!LO:DY:t= :mod=%s	!	!	!	!LO:DY:t= :mod=%s	!	!	!	!	!	!	!	!	!	!	!	!
!LO:MO:mod=!LO&colon;TX&colon;a&colon;i&colon;t=Solo	!	!LO:MO:mod=!LO&colon;DY&colon;ed=brack	!	!	!	!	!	!	!	!	!	!	!	!	!	!	!	!
!LO:TX:a:i:t=Sol	!	!	!	!	!	!LO:MO:mod=!LO&colon;DY&colon;ed=brack	!LO:TX:a:t=3:mod=	!	!LO:TX:a:t=3:mod=	!	!LO:TX:a:t=3:mod=	!	!	!	!LO:TX:a:t=7:mod=	!LO:TX:a:t=7:mod=	!LO:TX:a:t=2:mod=	!LO:TX:a:t=2:mod=
!	!	!null	!	!	!	!null	!LO:N:vis=00	!	!LO:N:vis=0	!	!LO:N:vis=0	!	!	!LO:MO:mod=his,	!LO:N:vis=00	!LO:N:vis=00	!LO:N:vis=0	!LO:N:vis=0
8A\L	4	p	8f#/L	p	8dd\L	p	2.r	.	2.r	.	2.r	.	8dd\L	his	1.r	1.r	2.r	2.r
8AA/J	3	.	8e/J	.	8cc#\J	.	.	.	.	.	.	.	8cc#\J	.	.	.	.	.
8r	.	.	8r	.	16gg\LL	.	.	.	.	.	.	.	16gg\LL	in	.	.	.	.
.	.	.	.	.	16ee\JJ	.	.	.	.	.	.	.	16ee\JJ	.	.	.	.	.
=8	=8	=8	=8	=8	=8	=8	=8	=8	=8	=8	=8	=8	=8	=8	=8	=8	=8	=8
8D/L	9	.	8g/L	.	8ee\L	.	.	.	.	.	.	.	8ee\L	his	.	.	.	.
!	!	!	!	!	!LO:SIC:s=8dd\J	!	!	!	!	!	!	!	!	!	!	!	!	!
8DD/J	8	.	8f#/J	.	8dd\	.	.	.	.	.	.	.	8dd\J	.	.	.	.	.
!	!	!	!	!	!LO:SIC:s=16ff#\LL	!	!	!	!	!	!	!	!	!LO:MO:mod=quae	!	!	!	!
8r	.	.	8r	.	16ff#\L	.	.	.	.	.	.	.	16ff#\LL	Que	.	.	.	.
.	.	.	.	.	16dd\JJ	.	.	.	.	.	.	.	16dd\JJ	.	.	.	.	.
=9	=9	=9	=9	=9	=9	=9	=9	=9	=9	=9	=9	=9	=9	=9	=9	=9	=9	=9
8AA/L	.	.	8e/L	.	8cc#\L	.	4.r	.	4.r	.	4.r	.	8cc#\	dic-	.	.	8A\L	8e\L
!	!	!	!	!	!	!	!	!	!	!	!	!	!LO:N:vis=4	!	!	!	!	!
8C#/	5	.	8g/	.	8ee\	.	.	.	.	.	.	.	8ee\	-ta	.	.	8e\	8g\
!	!	!	!	!	!	!	!	!	!	!	!	!	!	!	!	!	!	!LO:TX:a:t=e:mod=
8D/J	.	.	8f#/J	.	8dd\J	.	.	.	.	.	.	.	8dd\	sunt	.	.	8d\J	8f#\J
=10	=10	=10	=10	=10	=10	=10	=10	=10	=10	=10	=10	=10	=10	=10	=10	=10	=10	=10
!LO:TX:a:t=P:problem=mixed beam	!	!	!	!	!	!	!LO:TX:a:i:t=Solo	!	!LO:MO:mod=!LO&colon;TX&colon;a&colon;i&colon;t=Solo	!	!LO:TX:a:i:t=Solo	!	!LO:SIC:s=8dd\L	!	!	!	!	!
!	!	!	!	!	!	!	!	!	!null	!	!	!	!	!	!	!	!	!
8A\L	4	.	8f#/L	.	8dd\L	.	4r	.	4r	.	4r	.	(8dd\	mi-	.	.	8d\L	8f#\L
!	!	!	!	!	!	!	!	!	!	!	!	!	!LO:SIC:s=8cc#\J	!	!	!	!	!
8AA/J	3	.	8e/J	.	8cc#\J	.	.	.	.	.	.	.	8cc#\)	.	.	.	8A\J	8e\J
!	!	!	!	!	!	!	!	!LO:MO:mod=In	!LO:TX:a:i:t=Solo:mod=	!LO:MO:mod=In	!	!LO:MO:mod=In	!	!LO:MO:mod=-hi&colon;	!	!	!	!
8r	.	.	8r	.	8r	.	8A\	in	8A\	in	8a\	in	8a\	-hi	.	.	8r	8r
!	!	!	!	!	!	!	!	!	!	!	!	!	!LO:LB:g=original	!	!	!	!	!
=11	=11	=11	=11	=11	=11	=11	=11	=11	=11	=11	=11	=11	=11	=11	=11	=11	=11	=11
!LO:TX:a:t=3:mod=	!	!	!LO:TX:a:t=3:mod=	!	!LO:TX:a:t=3:mod=	!	!	!	!	!	!	!	!	!	!	!	!LO:TX:a:t=3:mod=	!LO:TX:a:t=3:mod=
!LO:N:vis=0	!	!	!LO:N:vis=0	!	!LO:N:vis=0	!	!	!LO:MO:mod=do-	!	!LO:MO:mod=do-	!	!LO:MO:mod=do-	!	!LO:MO:mod=do-	!LO:N:vis=0	!LO:N:vis=0	!LO:N:vis=0	!LO:N:vis=0
2.r	.	.	2.r	.	2.r	.	16D\LL	Do-	16D/LL	Do-	16d\LL	Do-	16d/LL	Do-	2.r	2.r	2.r	2.r
.	.	.	.	.	.	.	16C#\	.	16C#/	.	16c#\	.	16c#/	.	.	.	.	.
.	.	.	.	.	.	.	16D\	.	16D/	.	16d\	.	16d/	.	.	.	.	.
.	.	.	.	.	.	.	16E\JJ	.	16E/JJ	.	16e\JJ	.	16e/JJ	.	.	.	.	.
!	!	!	!	!	!	!	!	!LO:MO:mod=-mum	!	!LO:MO:mod=-mum	!	!	!	!	!	!	!	!
.	.	.	.	.	.	.	16F#\LL	-mun	16F#/LL	-mi	16f#\LL	-mum	16f#/LL	-mum	.	.	.	.
.	.	.	.	.	.	.	16G\JJ	.	16G/JJ	.	16g\JJ	.	16g/JJ	.	.	.	.	.
!	!	!	!	!	!	!	!	!	!LO:MO:mod==12	!LO:MO:mod==12	!	!	!	!	!	!	!	!
=12	=12	=12	=12	=12	=12	=12	=12	=12	=12-	=12-	=12	=12	=12	=12	=12	=12	=12	=12
!	!	!	!	!	!	!	!	!	!LO:MO:mod=!null:null	!	!	!	!	!	!	!	!	!
!	!	!	!	!	!	!	!	!	!LO:N:vis=8	!	!	!	!	!	!	!	!	!
.	.	.	.	.	.	.	8.A\	Do-	8.A\	Do-	8.a\	Do-	8.a\	Do-	.	.	.	.
.	.	.	.	.	.	.	.	.	.	.	.	.	.	.	.	.	.	.
!	!	!	!	!	!	!	!	!	!LO:MO:mod=!null:null	!	!	!	!	!	!	!	!	!
!	!	!	!	!	!	!	!	!	!LO:N:vis=16	!	!	!	!	!	!	!	!	!
.	.	.	.	.	.	.	32B\LLL	-mi-	32B\LL	-mi-	32b\LLL	-mi-	32b\LLL	-mi-	.	.	.	.
!	!	!	!	!	!	!	!	!	!LO:MO:mod=!null:null	!	!	!	!	!	!	!	!	!
!	!	!	!	!	!	!	!	!	!LO:N:vis=16	!	!	!	!	!	!	!	!	!
.	.	.	.	.	.	.	32c#\JJJ	.	32c#\JJ	.	32cc#\JJJ	.	32cc#\JJJ	.	.	.	.	.
.	.	.	.	.	.	.	8d\	-ni	8d\	-ni	8dd\	-ni	8dd\	-ni	.	.	.	.
!	!	!	!	!	!	!	!LO:LB:g=original	!	!LO:LB:g=original	!	!	!	!	!	!	!	!	!
=13	=13	=13	=13	=13	=13	=13	=13	=13	=13	=13	=13	=13	=13	=13	=13	=13	=13	=13
!	!	!	!	!	!	!	!	!	!LO:SIC:s=8B\L	!	!	!	!	!	!	!	!	!
4.r	.	.	4.r	.	4.r	.	8G\L	i-	(8B\L	i-	8g\L	i-	8ee\L	i-	4.r	4.r	4.r	4.r
!	!	!	!	!	!	!	!	!	!LO:SIC:s=8A\J	!	!	!	!	!	!	!	!	!
.	.	.	.	.	.	.	8A\J	.	8A\J)	.	8f#\J	.	8dd\J	.	.	.	.	.
.	.	.	.	.	.	.	8AA/	-bi-	8A\	-bi-	8e\	-bi-	8cc#\	-bi-	.	.	.	.
!	!	!	!	!	!	!	!	!	!	!	!LO:LB:g=original	!	!	!	!	!	!	!
=14	=14	=14	=14	=14	=14	=14	=14	=14	=14	=14	=14	=14	=14	=14	=14	=14	=14	=14
!	!	!LO:DY:t= :mod=%s	!	!	!	!	!	!	!	!	!	!	!	!	!	!	!	!
!	!	!LO:MO:mod=!LO&colon;DY&colon;ed=brack	!	!	!	!	!	!	!	!	!	!	!	!	!	!	!	!
!	!	!null	!LO:SIC:s=8ff# 8a 8d/L	!LO:DY:rj	!	!LO:DY:rj:t=for	!	!LO:MO:mod=mus.	!	!LO:MO:mod=mus.	!	!LO:MO:mod=mus.	!	!LO:MO:mod=mus.	!	!	!	!
8D\L	.	f	8ff# 8a 8d/	f	8ff#L 8a 8d\	f	8D\	-mus	8A\	-mus	8f#\	-mus	8dd\	-mus	8D/L	8dd\L	4.d\	4.f#\
!	!	!	!LO:SIC:s=16f#/	!	!	!	!	!LO:MO:mod=Stan-	!	!LO:MO:mod=Stan-	!	!LO:MO:mod=Stan-	!	!LO:MO:mod=Stan-	!	!	!	!
8D\	.	.	16f#/LL	.	16f#\L	.	8D\	stan-	8A\	stan-	8f#\	stan-	8dd\	stan-	8D/J	8dd\J	.	.
.	.	.	16d/	.	16d\	.	.	.	.	.	.	.	.	.	.	.	.	.
8D\J	.	.	16a/	.	16a\	.	8D\	-tes	8d\	-tes	8a\	-tes	8ff#\	-tes	8r	8r	.	.
.	.	.	16f#/JJ	.	16f#\JJ	.	.	.	.	.	.	.	.	.	.	.	.	.
!	!	!	!LO:LB:g=original	!	!LO:LB:g=original	!	!	!	!	!	!	!	!	!	!	!	!LO:LB:g=original	!
=15	=15	=15	=15	=15	=15	=15	=15	=15	=15	=15	=15	=15	=15	=15	=15	=15	=15	=15
*tremolo	*	*	*	*	*	*	*	*	*	*	*	*	*	*	*	*	*	*
8D\L	.	.	16dd\LL	.	16dd\LL	.	4.D\	e-	4.d\	e-	4.a\	e-	4.ff#\	e-	8D/L	8dd\L	4.d\	4.f#\
.	.	.	16a\	.	16a\	.	.	.	.	.	.	.	.	.	.	.	.	.
8D\	.	.	16ff#\	.	16ff#\	.	.	.	.	.	.	.	.	.	8D/	16dd\L	.	.
.	.	.	16dd\	.	16dd\	.	.	.	.	.	.	.	.	.	.	16dd\	.	.
8D\J	.	.	16aa\	.	16aa\	.	.	.	.	.	.	.	.	.	8D/J	16dd\	.	.
!	!	!	!	!	!LO:SIC:v:s=16ff#\JJ	!	!	!	!	!	!	!	!	!	!	!	!	!
.	.	.	16ff#\JJ	.	16gg\JJ	.	.	.	.	.	.	.	.	.	.	16dd\JJ	.	.
!LO:LB:g=original	!	!	!	!	!	!	!	!	!	!	!	!	!	!	!	!LO:LB:g=original	!	!
=16	=16	=16	=16	=16	=16	=16	=16	=16	=16	=16	=16	=16	=16	=16	=16	=16	=16	=16
!	!	!	!LO:TX:a:t=P:problem=mixed beam	!	!LO:TX:a:t=P:problem=mixed beam	!	!	!	!	!	!	!	!	!	!	!LO:TX:a:t=P:problem=mixed beam	!	!
8D\L	.	.	16ff#\LL	.	16ff#\LL	.	8D\	-rant	8d\	-rant	8a\	-rant	8ff#\	-rant	8D/L	8dd\L	4.d\	4.f#\
.	.	.	16d/	.	16d/	.	.	.	.	.	.	.	.	.	.	.	.	.
8D\	.	.	16f#/	.	16f#/	.	8D\	pe-	8d\	pe-	8a\	pe-	8ff#\	pe-	8D/J	8d/J	.	.
.	.	.	16d/	.	16d/	.	.	.	.	.	.	.	.	.	.	.	.	.
8D\J	.	.	16a/	.	16a/	.	8D\	-des	8d\	-des	8a\	-des	8ff#\	-des	8r	8r	.	.
.	.	.	16f#/JJ	.	16f#/JJ	.	.	.	.	.	.	.	.	.	.	.	.	.
!	!	!	!	!	!	!	!	!	!	!	!	!	!	!	!LO:LB:g=original	!	!	!
=17	=17	=17	=17	=17	=17	=17	=17	=17	=17	=17	=17	=17	=17	=17	=17	=17	=17	=17
!	!	!	!	!	!	!	!	!	!	!	!	!LO:MO:mod=no-	!	!LO:MO:mod=no-	!	!	!	!
8D\L	.	.	16dd\LL	.	16dd\LL	.	4.D\	no-	4.d\	no-	4.a\	e-	4.ff#\	e-	8D/L	8dd\L	4.d\	4.f#\
.	.	.	16a\	.	16a\	.	.	.	.	.	.	.	.	.	.	.	.	.
8D\	.	.	16ff#\	.	16ff#\	.	.	.	.	.	.	.	.	.	8D/	16dd\L	.	.
.	.	.	16dd\	.	16dd\	.	.	.	.	.	.	.	.	.	.	16dd\	.	.
8D\J	.	.	16aa\	.	16aa\	.	.	.	.	.	.	.	.	.	8D/J	16dd\	.	.
.	.	.	16gg\JJ	.	16gg\JJ	.	.	.	.	.	.	.	.	.	.	16dd\JJ	.	.
*Xtremolo	*	*	*	*	*	*	*	*	*	*	*	*	*	*	*	*	*	*
!	!	!	!	!	!	!	!	!	!	!	!	!	!	!	!	!	!	!LO:LB:g=original
=18	=18	=18	=18	=18	=18	=18	=18	=18	=18	=18	=18	=18	=18	=18	=18	=18	=18	=18
!	!	!	!	!	!	!	!	!LO:MO:mod=-stri,	!	!LO:MO:mod=-stri,	!	!LO:MO:mod=-stri,	!	!LO:MO:mod=-stri,	!	!LO:TX:a:t=P:problem=mixed beam	!	!
8D\L	.	.	16ff#\LL	.	16ff#\LL	.	4D\	-stri	4d\	-stri	4a\	-jus	4ff#\	-jus	8D/L	8dd\L	4d\	4f#\
.	.	.	16aa\	.	16aa\	.	.	.	.	.	.	.	.	.	.	.	.	.
8D\	.	.	16ff#\	.	16ff#\	.	.	.	.	.	.	.	.	.	8D/J	8d/J	.	.
.	.	.	16dd\	.	16dd\	.	.	.	.	.	.	.	.	.	.	.	.	.
8E\J	6	.	16cc#\	.	16cc#\	.	8E\	in	8c#\	in	8a\	in	8gg\	in	8r	8r	8A/	8e\
.	.	.	16ee\JJ	.	16ee\JJ	.	.	.	.	.	.	.	.	.	.	.	.	.
=19	=19	=19	=19	=19	=19	=19	=19	=19	=19	=19	=19	=19	=19	=19	=19	=19	=19	=19
!	!	!	!	!	!	!	!	!LO:MO:mod=a-	!	!	!	!LO:MO:mod=a-	!	!LO:MO:mod=a-	!	!	!	!
8F#\L	6	.	16dd\LL	.	16dd\LL	.	8F#\	al-	4d\	a-	8a\	at-	4ff#\	at-	8D/L	8dd\L	4F#/	4d\
.	.	.	16ff#\	.	16ff#\	.	.	.	.	.	.	.	.	.	.	.	.	.
!	!	!	!	!	!	!	!	!	!	!	!	!LO:MO:mod=-tri-	!	!	!	!	!	!
8D\	.	.	16aa\	.	16aa\	.	8D\	-tri-	.	.	8a\	-ri-	.	.	8D/	8dd\	.	.
.	.	.	16ff#\	.	16ff#\	.	.	.	.	.	.	.	.	.	.	.	.	.
!	!	!	!	!	!	!	!	!	!LO:SIC:v:s=8d\	!LO:MO:mod=-triis	!	!LO:MO:mod=-is	!	!LO:MO:mod=triis	!	!	!	!
8F#\J	6	.	16ee\	.	16ee\	.	8F#\	-iſ	8c#\	-tris	8a\	-js	8ff#\	-riſ	8D/J	8dd\J	8d\	8f#\
.	.	.	16dd\JJ	.	16dd\JJ	.	.	.	.	.	.	.	.	.	.	.	.	.
=20	=20	=20	=20	=20	=20	=20	=20	=20	=20	=20	=20	=20	=20	=20	=20	=20	=20	=20
8E\L	6	.	8cc#\L	.	16cc#\LL	.	8E\	tu-	8c#\	tu-	8a\	tu-	8ee\	tu-	8r	8r	4e\	4g\
.	.	.	.	.	16a\	.	.	.	.	.	.	.	.	.	.	.	.	.
8C#\	6	.	8a\	.	16gg\	.	8C#\	-is	8c#\	-is	8a\	-is	8ee\	-is	8AA/L	8a\L	.	.
.	.	.	.	.	16ee\	.	.	.	.	.	.	.	.	.	.	.	.	.
8D\J	.	.	8a\J	.	16ff#\	.	8D\	Je-	8d\	Je-	8a\	Je-	8ff#\	Je-	8D/J	8dd\J	8d\	8f#\
.	.	.	.	.	16aa\JJ	.	.	.	.	.	.	.	.	.	.	.	.	.
=21	=21	=21	=21	=21	=21	=21	=21	=21	=21	=21	=21	=21	=21	=21	=21	=21	=21	=21
!	!	!	!	!	!LO:MO:mod=*tuplet	!	!	!	!	!	!	!	!	!	!	!	!	!
*	*	*	*	*	*Xtuplet	*	*	*	*	*	*	*	*	*	*	*	*	*
!LO:TX:a:t=P:problem=mixed beam	!	!	!	!	!	!	!	!	!	!	!	!	!	!	!	!	!	!
8A\L	4	.	8dd\L	.	24ff#\LL	.	16A\	-ru-	16d\	-ru-	16a\	-ru-	16ff#\	-ru-	8AA/L	8a/L	8d\L	8f#\L
.	.	.	.	.	24ee\	.	.	.	.	.	.	.	.	.	.	.	.	.
.	.	.	.	.	.	.	16A\	-sa-	16d\	-sa-	16a\	-sa-	16ff#\	-sa-	.	.	.	.
.	.	.	.	.	24ff#\JJ	.	.	.	.	.	.	.	.	.	.	.	.	.
!	!	!	!	!	!	!	!	!LO:MO:mod=-lem.	!	!LO:MO:mod=-lem.	!	!LO:MO:mod=-lem.	!	!LO:MO:mod=-lem.	!	!	!	!
8AA/J	3	.	16cc#\L	.	16ee\LL	.	8AA/	-lem	8c#\	-lem	8a\	-lem	8ee\	-lem	8AA/J	8a/J	8A\J	8e\J
.	.	.	16a\	.	16a\	.	.	.	.	.	.	.	.	.	.	.	.	.
8r	.	.	16cc#\	.	16cc#\	.	8r	.	8r	.	8r	.	8r	.	8r	8r	8r	8r
.	.	.	16ee\JJ	.	16ee\JJ	.	.	.	.	.	.	.	.	.	.	.	.	.
!	!	!	!	!	!	!	!	!	!LO:LB:g=original	!	!	!	!LO:LB:g=original	!	!	!	!	!
=22	=22	=22	=22	=22	=22	=22	=22	=22	=22	=22	=22	=22	=22	=22	=22	=22	=22	=22
*	*	*	*tremolo	*	*	*	*	*	*	*	*	*	*	*	*	*	*	*
8A\L	.	.	8cc#\L	.	16aa\LL	.	8A\	Je-	8c#\	Je-	8a\	Je-	8ee\	Je-	8AA/L	8a/L	4.A/	4.e\
.	.	.	.	.	16a\	.	.	.	.	.	.	.	.	.	.	.	.	.
8A\	.	.	8cc#\	.	16cc#\	.	8A\	-ru-	8c#\	-ru-	8a\	-ru-	8ee\	-ru-	8AA/J	8a/J	.	.
.	.	.	.	.	16ee\	.	.	.	.	.	.	.	.	.	.	.	.	.
8A\J	.	.	8cc#\J	.	16aa\	.	8A\	-sa-	8c#\	-sa-	8a\	-sa-	8ee\	-sa-	8r	8r	.	.
.	.	.	.	.	16gg\JJ	.	.	.	.	.	.	.	.	.	.	.	.	.
!	!	!	!	!	!	!	!LO:LB:g=original	!	!	!	!	!	!	!	!	!	!	!
=23	=23	=23	=23	=23	=23	=23	=23	=23	=23	=23	=23	=23	=23	=23	=23	=23	=23	=23
*tremolo	*	*	*	*	*	*	*	*	*	*	*	*	*	*	*	*	*	*
!	!	!	!	!	!	!	!	!LO:MO:mod=-lem,	!	!LO:MO:mod=-lem,	!	!LO:MO:mod=-lem,	!	!LO:MO:mod=-lem,	!	!	!	!
8A\L	6 4	.	8dd\L	.	16ff#\LL	.	4A\	-lem	4d\	-lem	4a\	-lem	4ff#\	-lem	8AA/L	8a/L	4.d\	4.f#\
.	.	.	.	.	16a\	.	.	.	.	.	.	.	.	.	.	.	.	.
8A\	.	.	8dd\	.	16dd\	.	.	.	.	.	.	.	.	.	8AA/J	8a/J	.	.
.	.	.	.	.	16ff#\	.	.	.	.	.	.	.	.	.	.	.	.	.
!	!	!	!	!	!	!	!	!LO:MO:mod=quae	!	!LO:MO:mod=quae	!	!	!	!	!	!	!	!
8A\J	.	.	8dd\J	.	16aa\	.	8A\	que	8d\	que	8a\	quae	8ff#\	quae	8r	8r	.	.
.	.	.	.	.	16ff#\JJ	.	.	.	.	.	.	.	.	.	.	.	.	.
!	!	!	!	!	!LO:LB:g=original	!	!	!	!	!	!LO:LB:g=original	!	!	!	!	!	!	!
=24	=24	=24	=24	=24	=24	=24	=24	=24	=24	=24	=24	=24	=24	=24	=24	=24	=24	=24
!	!	!	!	!	!	!	!	!	!	!	!	!	!	!LO:MO:mod=ae-	!	!	!	!
8A\L	5 3	.	8cc#\L	.	16ee\LL	.	8A\	ae-	8c#\	ae-	8a\	ae-	8ee\	e-	8AA/L	8a/L	4.A/	4.e\
.	.	.	.	.	16a\	.	.	.	.	.	.	.	.	.	.	.	.	.
8A\	.	.	8cc#\	.	16cc#\	.	8A\	-di-	8c#\	-di-	8a\	-di-	8ee\	-di-	8AA/J	8a/J	.	.
.	.	.	.	.	16ee\	.	.	.	.	.	.	.	.	.	.	.	.	.
8A\J	.	.	8cc#\J	.	16aa\	.	8A\	-fi-	8c#\	-fi-	8a\	-fi-	8ee\	-fi-	8r	8r	.	.
.	.	.	.	.	16ee\JJ	.	.	.	.	.	.	.	.	.	.	.	.	.
*	*	*	*Xtremolo	*	*	*	*	*	*	*	*	*	*	*	*	*	*	*
=25	=25	=25	=25	=25	=25	=25	=25	=25	=25	=25	=25	=25	=25	=25	=25	=25	=25	=25
8A\L	.	.	16dd\LL	.	16dd\LL	.	4A\	-ca-	4c#\	-ca-	4a\	-ca-	4ee\	-ca-	8AA/L	8a/L	4.A/	4.a\
.	.	.	16cc#\	.	16cc#\	.	.	.	.	.	.	.	.	.	.	.	.	.
8A\	.	.	16ee\	.	16ee\	.	.	.	.	.	.	.	.	.	8AA/J	8a/J	.	.
.	.	.	16cc#\	.	16cc#\	.	.	.	.	.	.	.	.	.	.	.	.	.
8A\J	.	.	16b\	.	16b\	.	8A\	-tur	8A\	-tur	8a\	-tur	8ee\	-tur	8r	8r	.	.
.	.	.	16a\JJ	.	16a\JJ	.	.	.	.	.	.	.	.	.	.	.	.	.
!	!	!	!LO:LB:g=original	!	!	!	!	!	!	!	!	!	!	!	!	!	!	!
=26	=26	=26	=26	=26	=26	=26	=26	=26	=26	=26	=26	=26	=26	=26	=26	=26	=26	=26
!	!	!	!	!	!	!	!	!	!	!	!	!	!	!	!LO:TX:a:t=1:mod=	!	!	!
8E\L	7 #	.	4b\	.	4b\	.	8E\	ut	8G#X/	ut	8b\	ut	8dd\	ut	4.r	4.r	8e\L	8g#X\L
8E\	.	.	.	.	.	.	8E\	ci-	8G#/	ci-	8b\	ci-	8dd\	ci-	.	.	8e\	8g#\
8E\J	.	.	16cc#\LL	.	16cc#\LL	.	8E\	-vi-	8G#/	-vi-	8b\	-vi-	8dd\	-vi-	.	.	8e\J	8g#\J
.	.	.	16dd\JJ	.	16dd\JJ	.	.	.	.	.	.	.	.	.	.	.	.	.
!	!	!	!	!	!	!	!	!	!	!	!	!	!	!	!	!LO:LB:g=original	!	!
=27	=27	=27	=27	=27	=27	=27	=27	=27	=27	=27	=27	=27	=27	=27	=27	=27	=27	=27
!	!	!	!	!	!	!	!	!LO:MO:mod=-tas&colon;	!	!LO:MO:mod=-tas&colon;	!	!LO:MO:mod=-tas&colon;	!	!LO:MO:mod=-tas&colon;	!	!	!	!
8A\L	.	.	16cc#\LL	.	16cc#\LL	.	4A\	-tas	4A\	-tas	4a\	-tas	4cc#\	-tas	8AA/L	8a/L	4.A/	4.a\
!	!	!	!LO:SIC:s=16ee\	!	!	!	!	!	!	!	!	!	!	!	!	!	!	!
.	.	.	16ee\JJ	.	16ee\	.	.	.	.	.	.	.	.	.	.	.	.	.
!	!	!	!LO:SIC:s=16aa\	!	!	!	!	!	!	!	!	!	!	!	!	!	!	!
8A\	.	.	16aa\LL	.	16aa\	.	.	.	.	.	.	.	.	.	8AA/J	8a/J	.	.
.	.	.	16ee\	.	16ee\	.	.	.	.	.	.	.	.	.	.	.	.	.
8A\J	.	.	16dd\	.	16dd\	.	16A\	cu-	16A\	cu-	16cc#\	cu-	16ee\	cu-	8r	8r	.	.
.	.	.	16cc#\JJ	.	16cc#\JJ	.	16A\	-jus	16A\	-jus	16cc#\	-jus	16ee\	-jus	.	.	.	.
=28	=28	=28	=28	=28	=28	=28	=28	=28	=28	=28	=28	=28	=28	=28	=28	=28	=28	=28
!	!	!	!	!	!	!	!	!	!	!LO:MO:mod=par-	!	!	!	!	!LO:TX:a:t=1:mod=	!	!	!
8E\L	7 #	.	4b\	.	4b\	.	8E\	par-	8G#X/	Par-	8b\	par-	8dd\	par-	4.r	4.r	8e\L	8g#X\L
8E\	.	.	.	.	.	.	8E\	-ti-	8G#/	-ti-	8b\	-ti-	8dd\	-ti-	.	.	8e\J	8g#\J
8E\J	.	.	16cc#\LL	.	16cc#\LL	.	8E\	-ci-	8G#/	-ci-	8b\	-ci-	8dd\	-ci-	.	.	8r	8r
.	.	.	16dd\JJ	.	16dd\JJ	.	.	.	.	.	.	.	.	.	.	.	.	.
!	!	!	!	!	!	!	!	!	!LO:LB:g=original	!	!	!	!	!	!	!	!	!
=29	=29	=29	=29	=29	=29	=29	=29	=29	=29	=29	=29	=29	=29	=29	=29	=29	=29	=29
8A\L	.	.	8cc#\L	.	16cc#\LL	.	4A\	-pa-	4A\	-pa-	4a\	-pa-	4cc#\	-pa-	8AA/L	8a/L	4.A/	4.a\
.	.	.	.	.	16a\	.	.	.	.	.	.	.	.	.	.	.	.	.
8A\	.	.	8cc#\	.	16cc#\	.	.	.	.	.	.	.	.	.	8AA/J	8a/J	.	.
.	.	.	.	.	16ee\	.	.	.	.	.	.	.	.	.	.	.	.	.
8A\J	.	.	8cc#\J	.	16aa\	.	16A\	-ti-	16A\	-ti-	16cc#\	-ti-	16ee\	-ti-	8r	8r	.	.
.	.	.	.	.	16ee\JJ	.	16A\	-o	16A\	-o	16cc#\	-o	16ee\	-o	.	.	.	.
*Xtremolo	*	*	*	*	*	*	*	*	*	*	*	*	*	*	*	*	*	*
!	!	!	!	!	!	!	!	!	!	!	!	!	!	!	!LO:LB:g=original	!	!	!
=30	=30	=30	=30	=30	=30	=30	=30	=30	=30	=30	=30	=30	=30	=30	=30	=30	=30	=30
!	!	!	!	!	!	!	!	!	!	!	!	!	!	!	!LO:TX:a:t=2:mod=	!LO:TX:a:t=2:mod=	!	!
!	!	!	!	!	!	!	!	!	!	!	!	!	!	!	!LO:N:vis=0	!LO:N:vis=0	!	!
8E\L	#	.	8b\L	.	16dd\LL	.	8E\L	in	4e\	in	4b\	in	4dd\	in	2.r	2.r	4e\	4g#X\
.	.	.	.	.	16b\	.	.	.	.	.	.	.	.	.	.	.	.	.
8G#X\	6 5	.	8b\	.	16ee\	.	8G#X\J	.	.	.	.	.	.	.	.	.	.	.
.	.	.	.	.	16dd\	.	.	.	.	.	.	.	.	.	.	.	.	.
!	!	!	!	!	!	!	!	!	!	!	!	!LO:MO:mod=id-	!	!LO:MO:mod=id-	!	!	!	!
8A\J	.	.	8e\J	.	16cc#\	.	8A\	id-	8e\	id-	8a\	i-	8cc#\	i-	.	.	8A/	8a\
.	.	.	.	.	16aa\JJ	.	.	.	.	.	.	.	.	.	.	.	.	.
!	!	!	!	!	!	!	!	!	!	!	!	!	!	!	!	!	!LO:LB:g=original	!
=31	=31	=31	=31	=31	=31	=31	=31	=31	=31	=31	=31	=31	=31	=31	=31	=31	=31	=31
!LO:TX:a:t=P:problem=mixed beam	!	!	!	!	!	!	!LO:TX:a:t=P:problem=mixed beam	!	!LO:SIC:s=(8f#\	!	!	!LO:MO:mod=-ip-	!	!LO:MO:mod=-ip-	!	!	!	!
8D\L	6	.	16a\LL	.	24ff#\LL	.	8D\L	-ip-	8f#\	-ip-	8b\L	-dip-	8dd\L	-dip-	.	.	8d\L	8b\L
.	.	.	.	.	24ee\	.	.	.	.	.	.	.	.	.	.	.	.	.
.	.	.	16b\JJ	.	.	.	.	.	.	.	.	.	.	.	.	.	.	.
.	.	.	.	.	24dd\JJ	.	.	.	.	.	.	.	.	.	.	.	.	.
!	!	!	!	!	!	!	!	!	!LO:SIC:s=4e\)	!	!	!	!	!	!	!	!	!
8E\	4	.	8a\L	.	8cc#\L	.	8E\	.	4e\	.	8a\	.	8cc#\	.	.	.	8e\	8a\
!	!	!	!	!	!	!	!	!	!	!	!	!	!	!	!	!	!	!LO:SIC:v:s=8gg#\J
8EE/J	#	.	8g#X\J	.	8b\J	.	8EE/J	.	.	.	8g#X\J	.	8b\J	.	.	.	8e\J	8g\J
!LO:LB:g=original	!	!	!	!	!	!	!	!	!	!	!	!	!	!	!	!	!	!
=32	=32	=32	=32	=32	=32	=32	=32	=32	=32	=32	=32	=32	=32	=32	=32	=32	=32	=32
!	!	!	!	!LO:DY:t= :mod=%s	!	!LO:DY:t= :mod=%s	!	!	!	!	!	!	!	!	!	!	!	!
!LO:MO:mod=!LO&colon;TX&colon;a&colon;i&colon;t=Solo	!	!	!	!LO:MO:mod=!LO&colon;DY&colon;ed=brack	!	!LO:MO:mod=!LO&colon;DY&colon;ed=brack	!	!	!	!	!	!	!	!	!	!	!	!
!LO:TX:b:i:t=Solo	!	!LO:DY:a:t=fo:mod=	!	!null	!	!null	!	!LO:MO:mod=-sum.	!	!LO:MO:mod=-sum.	!	!LO:MO:mod=-sum.	!	!LO:MO:mod=-sum.	!	!	!	!
4AA/	.	f	4a\	f	16a\LL	f	4AA/	-sum	4e\	-sum	4a\	-sum	4a\	-sum	4AA/	4a/	4A/	4b\
.	.	.	.	.	16cc#\	.	.	.	.	.	.	.	.	.	.	.	.	.
.	.	.	.	.	16ee\	.	.	.	.	.	.	.	.	.	.	.	.	.
.	.	.	.	.	16aa\	.	.	.	.	.	.	.	.	.	.	.	.	.
8C#/	6	.	8ee\	.	16gg#X\	.	8r	.	8r	.	8r	.	8r	.	8r	8r	8r	8r
.	.	.	.	.	16aa\JJ	.	.	.	.	.	.	.	.	.	.	.	.	.
=33	=33	=33	=33	=33	=33	=33	=33	=33	=33	=33	=33	=33	=33	=33	=33	=33	=33	=33
!	!	!	!LO:MO:mod=*tuplet	!	!	!	!	!	!	!	!	!	!	!	!	!	!	!
*	*	*	*Xtuplet	*	*	*	*	*	*	*	*	*	*	*	*	*	*	*
!LO:TX:a:t=P:problem=mixed beam	!	!	!	!	!	!	!LO:TX:a:t=16:mod=	!	!LO:TX:a:t=16:mod=	!	!LO:TX:a:t=16:mod=	!	!LO:TX:a:t=1:mod=	!	!LO:TX:a:t=16:mod=	!LO:TX:a:t=16:mod=	!LO:TX:t=P:problem=takty 33-34 zapisane repetycją	!LO:TX:t=P:problem=takty 33-34 zapisane repetycją
!	!	!	!	!	!	!	!LO:N:vis=00	!	!LO:N:vis=00	!	!LO:N:vis=00	!	!	!	!LO:N:vis=00	!LO:N:vis=00	!LO:MO:mod=8d\L	!LO:MO:mod=8b\L
8D\L	6	.	24dd\LL	.	24ff#\LL	.	1.r	.	1.r	.	1.r	.	4.r	.	1.r	1.r	8d\Lyy	8b\Lyy
.	.	.	24cc#\	.	24ee\	.	.	.	.	.	.	.	.	.	.	.	.	.
.	.	.	24b\JJ	.	24dd\JJ	.	.	.	.	.	.	.	.	.	.	.	.	.
!	!	!	!	!	!	!	!	!	!	!	!	!	!	!	!	!	!LO:MO:mod=8e\	!LO:MO:mod=8b\
8E\	4	.	8a\L	.	8cc#\L	.	.	.	.	.	.	.	.	.	.	.	8e\yy	8a\yy
!	!	!	!	!	!	!	!	!	!	!	!	!	!	!	!	!	!LO:MO:mod=8e\J	!LO:SIC:v:s=8gg#\J
8EE/J	3	.	8g#X\J	.	8b\J	.	.	.	.	.	.	.	.	.	.	.	8e\Jyy	8g\Jyy
!	!	!	!	!	!LO:LB:g=original	!	!	!	!	!	!	!	!LO:LB:g=original	!	!	!	!	!
=34	=34	=34	=34	=34	=34	=34	=34	=34	=34	=34	=34	=34	=34	=34	=34	=34	=34	=34
!	!	!	!	!	!	!	!	!	!	!	!	!	!	!	!	!	!LO:MO:mod=4A/	!LO:MO:mod=4b\
4AA/	.	.	4a/	.	4a\	.	.	.	.	.	.	.	8r	.	.	.	4A/yy	4b\yy
!	!	!	!	!	!	!	!	!	!	!	!	!	!	!LO:MO:mod=Il-	!	!	!	!
.	.	.	.	.	.	.	.	.	.	.	.	.	8a\	il-	.	.	.	.
!	!	!	!	!	!	!	!	!	!	!	!	!	!	!	!	!	!LO:MO:mod=8r	!LO:MO:mod=8r
8A\	.	.	8r	.	8cc#\	.	.	.	.	.	.	.	8cc#\	-luc	.	.	8ryy	8ryy
!	!	!	!	!	!	!	!	!	!	!	!	!	!	!	!	!	!	!LO:PB:g=original
=35	=35	=35	=35	=35	=35	=35	=35	=35	=35	=35	=35	=35	=35	=35	=35	=35	=35	=35
!	!	!LO:DY:t= :mod=%s	!	!	!	!LO:DY:t= :mod=%s	!	!	!	!	!	!	!	!	!	!	!	!
!	!	!LO:MO:mod=!LO&colon;DY&colon;ed=brack	!	!	!	!LO:MO:mod=!LO&colon;DY&colon;ed=brack	!	!	!	!	!	!	!	!	!	!	!LO:TX:a:t=14:mod=	!LO:TX:a:t=14:mod=
!	!	!null	!	!	!	!null	!	!	!	!	!	!	!	!	!	!	!LO:N:vis=00	!LO:N:vis=00
4E\	.	p	8.g#X/L	p	8.b\L	p	.	.	.	.	.	.	8.b\L	e-	.	.	1.r	1.r
.	.	.	16a/K	.	16cc#\K	.	.	.	.	.	.	.	16cc#\Jk	.	.	.	.	.
8G#X\	6 5	.	8b/J	.	8dd\J	.	.	.	.	.	.	.	8dd\	-nim	.	.	.	.
=36	=36	=36	=36	=36	=36	=36	=36	=36	=36	=36	=36	=36	=36	=36	=36	=36	=36	=36
*tremolo	*	*	*	*	*	*	*	*	*	*	*	*	*	*	*	*	*	*
8A\L	.	.	8a\L	.	8cc#\L	.	.	.	.	.	.	.	8cc#\L	as-	.	.	.	.
8A\	.	.	8b\	.	8dd\	.	.	.	.	.	.	.	8dd\J	.	.	.	.	.
8A\J	.	.	8cc#\J	.	8ee\J	.	.	.	.	.	.	.	8ee\	-cen-	.	.	.	.
=37	=37	=37	=37	=37	=37	=37	=37	=37	=37	=37	=37	=37	=37	=37	=37	=37	=37	=37
!	!	!	!	!	!	!	!LO:N:vis=00	!	!LO:N:vis=00	!	!LO:N:vis=00	!	!	!	!LO:N:vis=00	!LO:N:vis=00	!	!
8A\L	6 4	.	8dd\L	.	8ff#\L	.	1.r	.	1.r	.	1.r	.	8ff#\L	-de-	1.r	1.r	.	.
8A\	.	.	8ee\	.	8gg#X\	.	.	.	.	.	.	.	8gg#X\J	.	.	.	.	.
8A\J	.	.	8ff#\J	.	8aa\J	.	.	.	.	.	.	.	8aa\	-runt	.	.	.	.
=38	=38	=38	=38	=38	=38	=38	=38	=38	=38	=38	=38	=38	=38	=38	=38	=38	=38	=38
8A\L	6_ 4_	.	4dd\	.	8.ff#\L	.	.	.	.	.	.	.	8.ff#\L	tri-	.	.	.	.
8A\	.	.	.	.	.	.	.	.	.	.	.	.	.	.	.	.	.	.
.	.	.	.	.	32ee\LL	.	.	.	.	.	.	.	32ee\LL	.	.	.	.	.
.	.	.	.	.	32ff#\JJJ	.	.	.	.	.	.	.	32ff#\JJJ	.	.	.	.	.
!	!	!	!	!	!	!	!	!	!	!	!	!	!	!LO:MO:mod=-bus,	!	!	!	!
8A\J	5_ 3_	.	8cc#\	.	8ee\	.	.	.	.	.	.	.	8ee\	-bus	.	.	.	.
*Xtremolo	*	*	*	*	*	*	*	*	*	*	*	*	*	*	*	*	*	*
=39	=39	=39	=39	=39	=39	=39	=39	=39	=39	=39	=39	=39	=39	=39	=39	=39	=39	=39
*	*	*	*	*	*	*	*	*	*	*	*	*	*	*ij	*	*	*	*
!	!	!	!	!	!	!	!	!	!	!	!	!	!	!	!	!	!LO:N:vis=00	!LO:N:vis=00
8A\L	.	.	8cc#\L	.	8ee\L	.	.	.	.	.	.	.	8ee\L	tri-	.	.	1.r	1.r
8D\	6	.	8b\	.	8dd\	.	.	.	.	.	.	.	8dd\J	.	.	.	.	.
8D#X\J	5	.	8a\J	.	8cc#\J	.	.	.	.	.	.	.	8cc#\	-bus	.	.	.	.
*	*	*	*	*	*	*	*	*	*	*	*	*	*	*Xij	*	*	*	*
!	!	!	!LO:LB:g=original	!	!	!	!	!	!	!	!	!	!	!	!	!	!	!
=40	=40	=40	=40	=40	=40	=40	=40	=40	=40	=40	=40	=40	=40	=40	=40	=40	=40	=40
!LO:TX:a:t=P:problem=mixed beam	!	!	!	!	!	!	!	!	!	!	!	!	!	!	!	!	!	!
8E\L	6 4	.	8a/L	.	8cc#\L	.	.	.	.	.	.	.	16cc#\	Do-	.	.	.	.
.	.	.	.	.	.	.	.	.	.	.	.	.	16cc#\	-mi-	.	.	.	.
!	!	!	!LO:SIC:s=(16g#X/L	!	!	!	!	!	!	!	!	!	!	!LO:MO:mod=-ni&colon;	!	!	!	!
8EE/J	#	.	16g#X/L	.	(16b\L	.	.	.	.	.	.	.	8b\	-ni	.	.	.	.
.	.	.	16a/	.	16cc#\	.	.	.	.	.	.	.	.	.	.	.	.	.
8r	.	.	16b/	.	16dd\	.	.	.	.	.	.	.	8r	.	.	.	.	.
!	!	!	!LO:SIC:s=16a/JJ)	!	!	!	!	!	!	!	!	!	!	!	!	!	!	!
.	.	.	16a/JJ	.	16cc#\JJ)	.	.	.	.	.	.	.	.	.	.	.	.	.
=41	=41	=41	=41	=41	=41	=41	=41	=41	=41	=41	=41	=41	=41	=41	=41	=41	=41	=41
*tremolo	*	*	*	*	*	*	*	*	*	*	*	*	*	*	*	*	*	*
!	!	!	!LO:SIC:v:s=4g#/	!	!	!	!LO:N:vis=00	!	!LO:N:vis=00	!	!LO:N:vis=00	!	!	!	!LO:N:vis=00	!LO:N:vis=00	!	!
8E\L	7 #	.	4g/	.	4b\	.	1.r	.	1.r	.	1.r	.	4b\	tes-	1.r	1.r	.	.
8E\	.	.	.	.	.	.	.	.	.	.	.	.	.	.	.	.	.	.
8E\J	.	.	8r	.	8r	.	.	.	.	.	.	.	16cc#\LL	-ti-	.	.	.	.
.	.	.	.	.	.	.	.	.	.	.	.	.	16dd\JJ	.	.	.	.	.
*Xtremolo	*	*	*	*	*	*	*	*	*	*	*	*	*	*	*	*	*	*
=42	=42	=42	=42	=42	=42	=42	=42	=42	=42	=42	=42	=42	=42	=42	=42	=42	=42	=42
!LO:TX:a:t=P:problem=mixed beam	!	!	!	!	!	!	!	!	!	!	!	!	!	!	!	!	!	!
8A\L	4	.	8b\L	.	8dd\L	.	.	.	.	.	.	.	16dd\	-mo-	.	.	.	.
.	.	.	.	.	.	.	.	.	.	.	.	.	16dd\	-ni-	.	.	.	.
!	!	!	!LO:SIC:s=(16a\L	!	!	!	!	!	!	!	!	!	!	!	!	!	!	!
8AA/J	3	.	16a\L	.	(16cc#\L	.	.	.	.	.	.	.	8cc#\	-um	.	.	.	.
.	.	.	16b\	.	16dd\	.	.	.	.	.	.	.	.	.	.	.	.	.
8r	.	.	16cc#\	.	16ee\	.	.	.	.	.	.	.	8r	.	.	.	.	.
!	!	!	!LO:SIC:s=16b\JJ)	!	!	!	!	!	!	!	!	!	!	!	!	!	!	!
.	.	.	16b\JJ	.	16dd\JJ)	.	.	.	.	.	.	.	.	.	.	.	.	.
=43	=43	=43	=43	=43	=43	=43	=43	=43	=43	=43	=43	=43	=43	=43	=43	=43	=43	=43
*tremolo	*	*	*	*	*	*	*	*	*	*	*	*	*	*	*	*	*	*
!	!	!	!	!	!	!	!	!	!	!	!	!	!LO:SIC:s=(8cc#\L	!LO:MO:mod=Is-	!	!	!LO:N:vis=00	!LO:N:vis=00
8AA/L	.	.	4a/	.	4cc#\	.	.	.	.	.	.	.	8cc#\L	Js-	.	.	1.r	1.r
8AA/	.	.	.	.	.	.	.	.	.	.	.	.	8ee\	.	.	.	.	.
8AA/J	.	.	8r	.	8r	.	.	.	.	.	.	.	8cc#\J	.	.	.	.	.
*Xtremolo	*	*	*	*	*	*	*	*	*	*	*	*	*	*	*	*	*	*
!	!	!	!	!	!	!	!	!	!	!	!	!	!LO:LB:g=original	!	!	!	!	!
=44	=44	=44	=44	=44	=44	=44	=44	=44	=44	=44	=44	=44	=44	=44	=44	=44	=44	=44
!LO:TX:a:t=P:problem=mixed beam	!	!	!	!	!	!	!	!	!	!	!	!	!LO:SIC:s=16cc#\)	!	!	!	!	!
8E\L	4	.	8a/L	.	8cc#\L	.	.	.	.	.	.	.	16cc#\	.	.	.	.	.
.	.	.	.	.	.	.	.	.	.	.	.	.	16cc#\	-ra-	.	.	.	.
!	!	!	!LO:SIC:s=(16g#X/L	!	!	!	!	!	!	!	!	!	!	!	!	!	!	!
8EE/J	5	.	16g#X/L	.	(16b\L	.	.	.	.	.	.	.	8b\	-el	.	.	.	.
.	.	.	16a/	.	16cc#\	.	.	.	.	.	.	.	.	.	.	.	.	.
8r	.	.	16b/	.	16dd\	.	.	.	.	.	.	.	8r	.	.	.	.	.
!	!	!	!LO:SIC:s=16a/JJ)	!	!	!	!	!	!	!	!	!	!	!	!	!	!	!
.	.	.	16a/JJ	.	16cc#\JJ)	.	.	.	.	.	.	.	.	.	.	.	.	.
=45	=45	=45	=45	=45	=45	=45	=45	=45	=45	=45	=45	=45	=45	=45	=45	=45	=45	=45
*tremolo	*	*	*	*	*	*	*	*	*	*	*	*	*	*	*	*	*	*
!	!	!	!LO:SIC:v:s=4g#/	!	!	!	!LO:N:vis=00	!	!LO:N:vis=00	!	!LO:N:vis=00	!	!	!	!LO:N:vis=00	!LO:N:vis=00	!	!
8E\L	#	.	4g/	.	4b\	.	1.r	.	1.r	.	1.r	.	4b\	ad	1.r	1.r	.	.
8E\	.	.	.	.	.	.	.	.	.	.	.	.	.	.	.	.	.	.
8E\J	.	.	16a/LL	.	16cc#\LL	.	.	.	.	.	.	.	16cc#\LL	con-	.	.	.	.
.	.	.	16b/JJ	.	16dd\JJ	.	.	.	.	.	.	.	16dd\JJ	.	.	.	.	.
=46	=46	=46	=46	=46	=46	=46	=46	=46	=46	=46	=46	=46	=46	=46	=46	=46	=46	=46
!	!	!	!LO:TX:a:t=P:problem=mixed beam	!	!	!	!	!	!	!	!	!	!	!	!	!	!	!
8AA/L	.	.	8e/L	.	8cc#\L	.	.	.	.	.	.	.	8cc#\	-fi-	.	.	.	.
8AA/	.	.	8cc#\	.	16aa\L	.	.	.	.	.	.	.	16aa\LL	-ten-	.	.	.	.
.	.	.	.	.	16gg#X\	.	.	.	.	.	.	.	16gg#X\JJ	.	.	.	.	.
8AA/J	.	.	8cc#\J	.	16ff#\	.	.	.	.	.	.	.	16ff#\LL	-dum	.	.	.	.
.	.	.	.	.	16ee\JJ	.	.	.	.	.	.	.	16ee\JJ	.	.	.	.	.
*Xtremolo	*	*	*	*	*	*	*	*	*	*	*	*	*	*	*	*	*	*
!	!	!	!	!	!LO:LB:g=original	!	!	!	!	!	!	!	!	!	!	!	!	!
=47	=47	=47	=47	=47	=47	=47	=47	=47	=47	=47	=47	=47	=47	=47	=47	=47	=47	=47
!LO:TX:a:t=P:problem=mixed beam	!	!	!	!	!	!	!	!	!	!	!	!	!	!	!	!	!LO:N:vis=0	!LO:N:vis=0
8E\L	4	.	8.cc#\L	.	8.ee\L	.	.	.	.	.	.	.	8.ee\	no-	.	.	2.r	2.r
8EE/	#	.	.	.	.	.	.	.	.	.	.	.	.	.	.	.	.	.
.	.	.	16b\K	.	16dd\K	.	.	.	.	.	.	.	16dd\	-mi-	.	.	.	.
8AA/J	.	.	8a\J	.	8cc#\J	.	.	.	.	.	.	.	8cc#\	-ni	.	.	.	.
!LO:LB:g=original	!	!	!	!	!	!	!	!	!	!	!	!	!	!	!	!	!	!
=48	=48	=48	=48	=48	=48	=48	=48	=48	=48	=48	=48	=48	=48	=48	=48	=48	=48	=48
!	!	!	!	!	!	!	!	!	!	!	!	!	!LO:MO:mod=*tuplet	!	!	!	!	!
*	*	*	*	*	*	*	*	*	*	*	*	*	*Xtuplet	*	*	*	*	*
!LO:TX:a:t=P:problem=mixed beam	!	!	!	!	!	!	!	!	!	!	!	!	!LO:SIC:s=(24ff#\LL	!	!	!	!	!
8D\L	6	.	24dd\LL	.	24ff#\LL	.	.	.	.	.	.	.	24ff#\LL	Do-	.	.	.	.
.	.	.	24cc#\	.	24ee\	.	.	.	.	.	.	.	24ee\	.	.	.	.	.
.	.	.	24b\JJ	.	24dd\JJ	.	.	.	.	.	.	.	24dd\JJ	.	.	.	.	.
!	!	!	!	!	!	!	!	!	!	!	!	!	!LO:SIC:s=8cc#\)	!	!	!	!	!
8E\	4	.	8a\L	.	8cc#\L	.	.	.	.	.	.	.	8cc#\	.	.	.	.	.
8EE/J	3	.	8g#X\J	.	8b\J	.	.	.	.	.	.	.	8b\	-mi-	.	.	.	.
!	!	!	!	!	!	!	!LO:LB:g=original	!	!	!	!LO:LB:g=original	!	!	!	!	!	!	!
=49	=49	=49	=49	=49	=49	=49	=49	=49	=49	=49	=49	=49	=49	=49	=49	=49	=49	=49
*tremolo	*	*	*	*	*	*	*	*	*	*	*	*	*	*	*	*	*	*
!	!	!LO:DY:t=fo:mod=	!	!LO:DY:rj	!	!LO:DY:rj:t=for:mod=	!	!	!	!	!	!	!	!LO:MO:mod=-ni.	!	!	!	!
8AA/L	.	f	16a\LL	f	16a\LL	f	8r	.	8r	.	8r	.	8cc#\	-ni	8AA/L	8a/L	4.A/	4.e\
.	.	.	16cc#\	.	16cc#\	.	.	.	.	.	.	.	.	.	.	.	.	.
!	!	!	!	!	!	!	!	!	!	!	!	!	!	!LO:MO:mod=Qui-	!	!	!	!
8AA/	.	.	16ee\	.	16ee\	.	8A\	Qui-	8c#\	Qui-	8a\	Qui-	8ee\	qui-	8AA/J	8a/J	.	.
.	.	.	16aa\	.	16aa\	.	.	.	.	.	.	.	.	.	.	.	.	.
8AA/J	.	.	16ee\	.	16ee\	.	8A\	-a	8c#\	-a	8a\	-a	8ee\	-a	8r	8r	.	.
.	.	.	16cc#\JJ	.	16cc#\JJ	.	.	.	.	.	.	.	.	.	.	.	.	.
=50	=50	=50	=50	=50	=50	=50	=50	=50	=50	=50	=50	=50	=50	=50	=50	=50	=50	=50
8AA/L	6 4	.	16a\LL	.	16a\LL	.	4A\	il-	4d\	il-	4a\	il-	4ff#\	il-	8AA/L	8a/L	4.d\	4.f#\
.	.	.	16dd\	.	16dd\	.	.	.	.	.	.	.	.	.	.	.	.	.
8AA/	.	.	16ff#\	.	16ff#\	.	.	.	.	.	.	.	.	.	8AA/J	8a/J	.	.
.	.	.	16aa\	.	16aa\	.	.	.	.	.	.	.	.	.	.	.	.	.
8AA/J	.	.	16gg\	.	16gg\	.	8A\	-lic	8d\	-lic	8a\	-lic	8ff#\	-lic	8r	8r	.	.
.	.	.	16ff#\JJ	.	16ff#\JJ	.	.	.	.	.	.	.	.	.	.	.	.	.
=51	=51	=51	=51	=51	=51	=51	=51	=51	=51	=51	=51	=51	=51	=51	=51	=51	=51	=51
8A\L	5 3	.	16ee\LL	.	16ee\LL	.	8.A\	se-	8.c#\	se-	8.a\	se-	8.ee\	se-	8AA/L	8a/L	4.A/	4.e\
.	.	.	16cc#\	.	16cc#\	.	.	.	.	.	.	.	.	.	.	.	.	.
8A\	.	.	16ee\	.	16ee\	.	.	.	.	.	.	.	.	.	8AA/J	8a/J	.	.
.	.	.	16aa\	.	16aa\	.	16A\	-de-	16c#\	-de-	16a\	-de-	16ee\	-de-	.	.	.	.
!	!	!	!	!	!	!	!	!	!	!	!	!LO:MO:mod=-runt	!	!	!	!	!	!
8A\J	.	.	16ee\	.	16ee\	.	8A\	-runt	8c#\	-runt	8a\	-rum	8ee\	-runt	8r	8r	.	.
.	.	.	16cc#\JJ	.	16cc#\JJ	.	.	.	.	.	.	.	.	.	.	.	.	.
!	!	!	!LO:LB:g=original	!	!	!	!	!	!	!	!	!	!	!	!	!	!	!
=52	=52	=52	=52	=52	=52	=52	=52	=52	=52	=52	=52	=52	=52	=52	=52	=52	=52	=52
!	!	!	!	!	!	!	!	!	!	!	!	!	!	!	!LO:TX:a:t=1:mod=	!LO:TX:a:t=1:mod=	!	!
8Gn\L	4 2	.	16a\LL	.	16a\LL	.	4Gn\	se-	4c#\	se-	4a\	se-	4ee\	se-	4.r	4.r	4.A/	4.e\
.	.	.	16ee\	.	16ee\	.	.	.	.	.	.	.	.	.	.	.	.	.
8Gn\	.	.	16dd\	.	16dd\	.	.	.	.	.	.	.	.	.	.	.	.	.
.	.	.	16cc#\	.	16cc#\	.	.	.	.	.	.	.	.	.	.	.	.	.
8Gn\J	.	.	16b\	.	16b\	.	8G\	-des	8c#\	-des	8a\	-des	8ee\	-des	.	.	.	.
.	.	.	16cc#\JJ	.	16cc#\JJ	.	.	.	.	.	.	.	.	.	.	.	.	.
*Xtremolo	*	*	*	*	*	*	*	*	*	*	*	*	*	*	*	*	*	*
!	!	!	!	!	!	!	!	!	!LO:LB:g=original	!	!	!	!	!	!	!	!	!
=53	=53	=53	=53	=53	=53	=53	=53	=53	=53	=53	=53	=53	=53	=53	=53	=53	=53	=53
8F#\L	6	.	16dd\LL	.	16dd\LL	.	8F#\L	in	8d\L	in	4a\	in	8ff#\L	in	8D/L	8dd\L	8d\L	8f#\L
.	.	.	16a\	.	16a\	.	.	.	.	.	.	.	.	.	.	.	.	.
8C#\	5	.	16ee\	.	16ee\	.	8C#\J	.	8e\J	.	.	.	8gg\J	.	8AA/	8a\	8e\	8g\
.	.	.	16gg\	.	16gg\	.	.	.	.	.	.	.	.	.	.	.	.	.
!	!	!	!	!	!	!	!	!LO:MO:mod=ju-	!	!LO:MO:mod=ju-	!	!	!	!	!	!	!	!
8D\J	.	.	16ff#\	.	16ff#\	.	8D\	iu-	8d\	Ju-	8a\	ju-	8ff#\	ju-	8D/J	8dd\J	8d\J	8f#\J
.	.	.	16dd\JJ	.	16aa\JJ	.	.	.	.	.	.	.	.	.	.	.	.	.
!	!	!	!	!	!	!	!	!	!	!	!	!	!LO:LB:g=original	!	!	!	!	!
=54	=54	=54	=54	=54	=54	=54	=54	=54	=54	=54	=54	=54	=54	=54	=54	=54	=54	=54
!LO:TX:a:t=P:problem=mixed beam	!	!	!	!	!	!	!	!LO:MO:mod=-di-	!	!	!	!	!	!	!	!	!	!
8A\L	4	.	8dd\L	.	8ff#\L	.	16A\	-sti-	16d\	-di-	16a\	-di-	16ff#\	-di-	8AA/L	8a/L	8d\L	8f#\L
!	!	!	!	!	!	!	!	!LO:MO:mod=-ci-	!	!	!	!	!	!	!	!	!	!
.	.	.	.	.	.	.	16A\	-ti-	16d\	-ci-	16a\	-ci-	16ff#\	-ci-	.	.	.	.
!	!	!	!	!	!	!	!	!LO:MO:mod=-o,	!	!LO:MO:mod=-o,	!	!LO:MO:mod=-o,	!	!LO:MO:mod=-o,	!	!	!	!
8AA/J	3	.	16cc#\L	.	16ee\L	.	8AA/	-a	8c#\	-o	8a\	-o	8ee\	-a	8AA/J	8a/J	8A\J	8e\J
.	.	.	16a\	.	16a\	.	.	.	.	.	.	.	.	.	.	.	.	.
8r	.	.	16cc#\	.	16cc#\	.	8r	.	8r	.	8r	.	8r	.	8r	8r	8r	8r
.	.	.	16ee\JJ	.	16ee\JJ	.	.	.	.	.	.	.	.	.	.	.	.	.
=55	=55	=55	=55	=55	=55	=55	=55	=55	=55	=55	=55	=55	=55	=55	=55	=55	=55	=55
8A\L	.	.	16gg\LL	.	16gg\LL	.	4A\	se-	4c#\	se-	4a\	se-	4ee\	se-	8AA/L	8a/L	4A/	4.e\
.	.	.	16ee\	.	16ee\	.	.	.	.	.	.	.	.	.	.	.	.	.
8A\	.	.	16cc#\	.	16cc#\	.	.	.	.	.	.	.	.	.	8AA/	8a/	.	.
.	.	.	16ee\	.	16ee\	.	.	.	.	.	.	.	.	.	.	.	.	.
8c#\J	6	.	16a\	.	16a\	.	8c#\	-des	8c#\	-des	8a\	-des	8ee\	-des	8AA/J	8a/J	8r	.
.	.	.	16gg\JJ	.	16gg\JJ	.	.	.	.	.	.	.	.	.	.	.	.	.
=56	=56	=56	=56	=56	=56	=56	=56	=56	=56	=56	=56	=56	=56	=56	=56	=56	=56	=56
!	!	!	!	!	!	!	!	!	!	!	!LO:SIC:s=8a\L	!	!	!	!	!	!	!
8d\L	.	.	16ff#\LL	.	16ff#\LL	.	8d\L	su-	4A\	su-	(8a\L	su-	8ff#\L	su-	8AA/L	8dd\L	8d\L	8f#\L
.	.	.	16aa\	.	16aa\	.	.	.	.	.	.	.	.	.	.	.	.	.
!	!	!	!	!	!	!	!	!	!	!	!LO:SIC:s=8g\J	!	!	!	!	!	!	!
8A\	.	.	16cc#\	.	16cc#\	.	8A\J	.	.	.	8g\)	.	8ee\J	.	8D/	8a\	8A\	8e\
.	.	.	16ee\JJ	.	16ee\	.	.	.	.	.	.	.	.	.	.	.	.	.
!	!	!	!LO:SIC:s=8dd\J	!	!	!	!	!	!	!	!LO:SIC:s=8f#\	!	!	!	!	!	!	!
8B\J	.	.	8dd\	.	16dd\	.	8B\	-per	8d\	-per	8f#\J	-per	8dd\	-per	8AA/J	8dd\J	8d\J	8f#\J
.	.	.	.	.	16ff#\JJ	.	.	.	.	.	.	.	.	.	.	.	.	.
!	!	!	!	!	!LO:LB:g=original	!	!	!	!	!	!	!	!	!	!	!LO:LB:g=original	!	!
=57	=57	=57	=57	=57	=57	=57	=57	=57	=57	=57	=57	=57	=57	=57	=57	=57	=57	=57
!LO:TX:a:t=P:problem=mixed beam	!	!	!LO:SIC:s=8qcc#/	!	!	!	!	!	!	!	!	!	!	!	!	!	!	!
.	.	.	8qqcc#/	.	.	.	.	.	.	.	.	.	.	.	.	.	.	.
!	!	!	!	!	!	!	!	!LO:MO:mod=do-	!	!LO:MO:mod=do-	!	!LO:MO:mod=do-	!	!LO:MO:mod=do-	!	!	!	!
8G\L	6	.	24b\LL	.	24gg\LL	.	16G\	do-	16B\	Do-	16g\	Do-	16ee\	Do-	8r	8r	8e\L	8g\L
.	.	.	24a\	.	24ff#\	.	.	.	.	.	.	.	.	.	.	.	.	.
.	.	.	.	.	.	.	16G\	-mum	16B\	-mum	16g\	-mum	16ee\	-mum	.	.	.	.
.	.	.	24g\JJ	.	24ee\JJ	.	.	.	.	.	.	.	.	.	.	.	.	.
!	!	!	!	!	!	!	!LO:TX:a:t=P:problem=mixed beam	!	!	!LO:MO:mod=Da-	!	!	!	!LO:MO:mod=Da-	!	!	!	!
8A\	4	.	8f#/L	.	8dd\L	.	8A\L	Da-	4A\	da-	8f#\L	Da-	8dd\L	da-	8AA/L	8a/L	8d\	8f#\
!	!	!	!	!	!	!	!	!	!	!	!LO:SIC:v:s=8e\J	!	!	!	!	!	!	!
8AA/J	3	.	8e/J	.	8cc#\J	.	8AA/J	.	.	.	8d\J	.	8cc#\J	.	8AA/J	8a/J	8A\J	8e\J
=58	=58	=58	=58	=58	=58	=58	=58	=58	=58	=58	=58	=58	=58	=58	=58	=58	=58	=58
*tremolo	*	*	*	*	*	*	*	*	*	*	*	*	*	*	*	*	*	*
!	!	!	!	!	!	!	!	!LO:MO:mod=-vid.	!	!LO:MO:mod=-vid.	!	!LO:MO:mod=-vid.	!	!LO:MO:mod=-vid.	!	!LO:TX:a:t=P:problem=mixed beam	!LO:TX:a:t=P:problem=mixed beam	!
8D\L	.	.	8f#/	.	16dd\LL	.	8D\	-vit	4A\	-vid	4f#\	-vit	4dd\	-vi	8D/L	8dd\L	8F#/L	8d\L
.	.	.	.	.	16a\	.	.	.	.	.	.	.	.	.	.	.	.	.
8D\	.	.	16dd\LL	.	16ff#\	.	8r	.	.	.	.	.	.	.	8D/	8dd\	8d\	8f#\
.	.	.	16a\	.	16dd\	.	.	.	.	.	.	.	.	.	.	.	.	.
!	!	!	!	!	!	!	!	!	!	!	!	!	!	!LO:MO:mod=Ro-	!	!	!	!
8D\J	.	.	16ff#\	.	16aa\	.	8D\	Ro-	8d\	Ro-	8a\	Ro-	8ff#\	d ro-	8D/J	8d/J	8d\J	8f#\J
.	.	.	16dd\JJ	.	16ff#\JJ	.	.	.	.	.	.	.	.	.	.	.	.	.
*Xtremolo	*	*	*	*	*	*	*	*	*	*	*	*	*	*	*	*	*	*
!	!	!	!	!	!	!	!LO:LB:g=original	!	!	!	!LO:PB:g=original	!	!	!	!LO:LB:g=original	!	!	!
=59	=59	=59	=59	=59	=59	=59	=59	=59	=59	=59	=59	=59	=59	=59	=59	=59	=59	=59
!LO:TX:a:t=P:problem=mixed beam	!	!	!	!	!	!	!	!	!	!	!	!	!	!	!	!	!	!
8A\L	4	.	8dd\L	.	8ff#\L	.	8A\	-ga-	8d\	-ga-	8a\	-ga-	8ff#\	-ga-	8AA/L	8a/L	8d\L	8f#\L
8AA/J	3	.	16cc#\L	.	16ee\L	.	8AA/	-te	8c#\	-te	8a\	-te	8ee\	-te	8AA/J	8a/J	8A\J	8e\J
.	.	.	16a\	.	16a\	.	.	.	.	.	.	.	.	.	.	.	.	.
8r	.	.	16cc#\	.	16cc#\	.	8r	.	8r	.	8r	.	8r	.	8r	8r	8r	8r
.	.	.	16dd\JJ	.	16dd\JJ	.	.	.	.	.	.	.	.	.	.	.	.	.
!	!	!	!	!	!	!	!	!	!	!	!	!	!	!	!	!	!LO:PB:g=original	!
=60	=60	=60	=60	=60	=60	=60	=60	=60	=60	=60	=60	=60	=60	=60	=60	=60	=60	=60
*tremolo	*	*	*	*	*	*	*	*	*	*	*	*	*	*	*	*	*	*
!	!	!	!	!	!	!	!	!	!	!LO:MO:mod=quae	!	!LO:MO:mod=quae	!	!LO:MO:mod=quae	!	!	!	!
8A\L	.	.	16ee\LL	.	(16ee\LL	.	4A\	quae	4A\	que	4g\	que	4ee\	Que	8AA/L	8a/L	8e\L	8g\L
.	.	.	16cc#\	.	16cc#\)	.	.	.	.	.	.	.	.	.	.	.	.	.
8A\	.	.	16ee\	.	(16ee\	.	.	.	.	.	.	.	.	.	8AA/	8a/	8e\	8g\
.	.	.	16cc#\	.	16cc#\)	.	.	.	.	.	.	.	.	.	.	.	.	.
!	!	!	!	!	!LO:SIC:s=(16gg\	!	!	!	!LO:TX:a:t=wiX:mod=	!	!	!	!	!	!	!	!	!
8A\J	.	.	16a\	.	16gg\	.	8A\	ad	8A\	ad	8g\	ad	8ee\	ad	8AA/J	8a/J	8e\J	8g\J
!	!	!	!	!	!LO:SIC:s=16ee\JJ)	!	!	!	!	!	!	!	!	!	!	!	!	!
.	.	.	16g\JJ	.	16ee\JJ	.	.	.	.	.	.	.	.	.	.	.	.	.
*Xtremolo	*	*	*	*	*	*	*	*	*	*	*	*	*	*	*	*	*	*
!	!	!	!	!	!	!	!	!	!LO:LB:g=original	!	!	!	!	!	!	!	!	!
=61	=61	=61	=61	=61	=61	=61	=61	=61	=61	=61	=61	=61	=61	=61	=61	=61	=61	=61
!	!	!	!	!	!	!	!	!	!LO:TX:a:t=DeX:mod=	!	!	!	!	!	!	!LO:TX:a:t=P:problem=mixed beam	!	!
8d\L	6 4	.	8g/L	.	8ee\L	.	8d\	pa-	8A\	pa-	8g\	pa-	8ee\	pa-	8D/L	8dd\L	8e\L	8g\L
8D\	.	.	8f#/	.	16dd\L	.	8D\	-cem	8A\	-cem	8f#\	-cem	8dd\	-cem	8D/J	8d/J	8d\	8f#\
.	.	.	.	.	16ff#\	.	.	.	.	.	.	.	.	.	.	.	.	.
8F#\J	6	.	8a/J	.	16dd\	.	8F#\	sunt	8A\	sunt	8f#\	sunt	8dd\	sunt	8r	8r	8f#\J	8a\J
.	n5r	.	.	.	16ccn\JJ	.	.	.	.	.	.	.	.	.	.	.	.	.
!	!	!	!LO:LB:g=original	!	!	!	!	!	!	!	!	!	!	!	!	!	!	!
=62	=62	=62	=62	=62	=62	=62	=62	=62	=62	=62	=62	=62	=62	=62	=62	=62	=62	=62
!	!	!	!	!	!LO:SIC:s=8qccn/	!	!	!	!	!	!	!	!	!	!LO:TX:a:t=1:mod=	!LO:TX:a:t=1:mod=	!	!
.	.	.	.	.	8qqcc#/	.	.	.	.	.	.	.	.	.	.	.	.	.
!	!	!	!	!	!	!	!	!LO:MO:mod=Je-	!	!	!	!	!	!	!	!	!	!
8G\L	3	.	8d/L	.	8b\L	.	(4G\	Jer-	4.B\	Je-	(4g\	Je-	(4ee\	Je-	4.r	4.r	4e\	4g\
8G\	6	.	16b/L	.	16gg\L	.	.	.	.	.	.	.	.	.	.	.	.	.
.	.	.	16a/	.	16ff#\	.	.	.	.	.	.	.	.	.	.	.	.	.
!	!	!	!	!	!	!	!	!	!	!	!	!	!LO:SIC:s=8dd\)	!	!	!	!	!
8G#X\J	5	.	16g/	.	16ee\	.	8G#X\)	.	.	.	8f#\)	.	[8dd\)	.	.	.	8d\	8f#\
.	.	.	16f#/JJ	.	16dd\JJ	.	.	.	.	.	.	.	.	.	.	.	.	.
!LO:LB:g=original	!	!	!	!	!	!	!	!	!	!	!	!	!	!	!	!	!	!LO:LB:g=original
=63	=63	=63	=63	=63	=63	=63	=63	=63	=63	=63	=63	=63	=63	=63	=63	=63	=63	=63
!LO:TX:a:t=P:problem=mixed beam	!	!	!	!	!	!	!	!	!	!	!	!	!LO:SIC:s=16dd\	!	!	!	!	!
8A\L	4	.	8f#/L	.	24dd\LL	.	16A\	-ru-	16A\	-ru-	16f#\	ru-	16dd\]	-ru-	8AA/L	8a/L	8d\L	8f#\L
.	.	.	.	.	24cc#X\	.	.	.	.	.	.	.	.	.	.	.	.	.
.	.	.	.	.	.	.	16A\	-ſa-	16A\	-sa-	16f#\	-sa-	16dd\	-sa-	.	.	.	.
.	.	.	.	.	24dd\JJ	.	.	.	.	.	.	.	.	.	.	.	.	.
!	!	!	!	!	!	!	!	!LO:MO:mod=-lem&colon;	!	!LO:MO:mod=-lem&colon;	!	!LO:MO:mod=-lem&colon;	!	!LO:MO:mod=-lem&colon;	!	!	!	!
8AA/	#	.	8e/	.	16cc#\LL	.	8AA/	-lem	8A\	-lem	8e\	-lem	8cc#\	-lem	8AA/	8a/	8A\	8e\
.	.	.	.	.	16ee\	.	.	.	.	.	.	.	.	.	.	.	.	.
!	!	!	!	!	!	!	!	!	!	!LO:MO:mod=et	!	!	!	!	!	!	!	!
8c#X\J	6	.	8e/J	.	16a\	.	8c#\	et	8A\	&	8a\	et	8ee\	et	8AA/J	8a/J	8e\J	8g\J
.	.	.	.	.	16gg\JJ	.	.	.	.	.	.	.	.	.	.	.	.	.
!	!	!	!	!	!	!	!	!	!	!	!	!	!LO:LB:g=original	!	!	!	!	!
=64	=64	=64	=64	=64	=64	=64	=64	=64	=64	=64	=64	=64	=64	=64	=64	=64	=64	=64
*tremolo	*	*	*tremolo	*	*	*	*	*	*	*	*	*	*	*	*	*	*	*
!	!	!	!	!	!	!	!	!	!	!	!	!	!	!	!	!LO:TX:a:t=P:problem=mixed beam	!	!
8d\L	.	.	8f#/L	.	8ff#\L	.	16d\	a-	16d\	a-	16a\	a-	16ff#\	a-	8D/L	8dd\L	4.d\	4.f#\
.	.	.	.	.	.	.	16d\	-bun-	16d\	-bun-	16a\	-bun-	16ff#\	-bun-	.	.	.	.
!	!	!	!	!	!	!	!	!LO:MO:mod=-dan-	!	!	!	!	!	!	!	!	!	!
8d\	.	.	8f#/	.	(32aa\LL	.	8d\	-da-	8d\	-dan-	8a\	-dan-	8ff#\	-dan-	8D/J	8d/J	.	.
.	.	.	.	.	32gg\	.	.	.	.	.	.	.	.	.	.	.	.	.
.	.	.	.	.	32aa\	.	.	.	.	.	.	.	.	.	.	.	.	.
.	.	.	.	.	32bb\JJJ)	.	.	.	.	.	.	.	.	.	.	.	.	.
8d\J	.	.	8f#/J	.	16aa\LL	.	16d\	-ti-	16d\	-ti-	16a\	-ti-	16ff#\	-ti-	8r	8r	.	.
!	!	!	!	!	!	!	!	!	!	!LO:MO:mod=-a	!	!	!	!	!	!	!	!
.	.	.	.	.	16ff#\JJ	.	16d\	-a	16d\	-o	16a\	-a	16ff#\	-a	.	.	.	.
!	!	!	!	!	!LO:LB:g=original	!	!	!	!	!	!	!	!	!	!	!	!	!
!!LO:MO:ori
=65	=65	=65	=65	=65	=65	=65	=65	=65	=65	=65	=65	=65	=65	=65	=65	=65	=65	=65
!LO:TX:t=P:problem=nadmiarowe 3 takty w clno	!	!	!LO:TX:t=P:problem=nadmiarowe 3 takty w clno	!	!LO:TX:t=P:problem=nadmiarowe 3 takty w clno	!	!LO:TX:t=P:problem=nadmiarowe 3 takty w clno	!	!LO:TX:t=P:problem=nadmiarowe 3 takty w clno	!	!LO:TX:t=P:problem=nadmiarowe 3 takty w clno	!	!LO:TX:t=P:problem=nadmiarowe 3 takty w clno	!	!LO:TX:t=P:problem=nadmiarowe 3 takty w clno	!LO:TX:t=P:problem=niepotrzebnie powtórzone 3 takty	!LO:TX:t=P:problem=nadmiarowe 3 takty w clno	!LO:TX:t=P:problem=nadmiarowe 3 takty w clno
!	!	!	!	!	!	!	!	!	!	!	!	!	!	!	!	!LO:TX:t=1	!	!
4.ryy	.	.	4.ryy	.	4.ryy	.	4.ryy	.	4.ryy	.	4.ryy	.	4.ryy	.	4.ryy	4.r	4.ryy	4.ryy
=66	=66	=66	=66	=66	=66	=66	=66	=66	=66	=66	=66	=66	=66	=66	=66	=66	=66	=66
4.ryy	.	.	4.ryy	.	4.ryy	.	4.ryy	.	4.ryy	.	4.ryy	.	4.ryy	.	4.ryy	8a/L	4.ryy	4.ryy
.	.	.	.	.	.	.	.	.	.	.	.	.	.	.	.	8a/	.	.
.	.	.	.	.	.	.	.	.	.	.	.	.	.	.	.	8a/J	.	.
=67	=67	=67	=67	=67	=67	=67	=67	=67	=67	=67	=67	=67	=67	=67	=67	=67	=67	=67
!	!	!	!	!	!	!	!	!	!	!	!	!	!	!	!	!LO:TX:a:t=P:problem=mixed beam	!	!
4.ryy	.	.	4.ryy	.	4.ryy	.	4.ryy	.	4.ryy	.	4.ryy	.	4.ryy	.	4.ryy	8dd\L	4.ryy	4.ryy
.	.	.	.	.	.	.	.	.	.	.	.	.	.	.	.	8d/J	.	.
.	.	.	.	.	.	.	.	.	.	.	.	.	.	.	.	8r	.	.
!	!	!	!	!	!	!	!	!	!	!	!	!	!	!	!	!LO:PB:g=original	!	!
!!LO:MO:end
=68	=68	=68	=68	=68	=68	=68	=68	=68	=68	=68	=68	=68	=68	=68	=68	=68	=68	=68
!	!	!	!	!	!	!	!	!	!	!	!	!	!	!	!	!LO:TX:a:t=1:mod=	!	!
8B\L	.	.	8d/L	.	8dd\L	.	4B\	di-	4d\	di-	4d\	di-	4ff#\	di-	4.r	4.r	4.d\	4.f#\
8B\	.	.	8d/	.	32ff#\LL	.	.	.	.	.	.	.	.	.	.	.	.	.
.	.	.	.	.	32ee\	.	.	.	.	.	.	.	.	.	.	.	.	.
.	.	.	.	.	32ff#\	.	.	.	.	.	.	.	.	.	.	.	.	.
.	.	.	.	.	32gg\JJJ	.	.	.	.	.	.	.	.	.	.	.	.	.
8B\J	.	.	8d/J	.	16ff#\LL	.	8B\	-li-	8d\	-li-	8d\	-li-	8ff#\	-li-	.	.	.	.
.	.	.	.	.	16dd\JJ	.	.	.	.	.	.	.	.	.	.	.	.	.
*Xtremolo	*	*	*Xtremolo	*	*	*	*	*	*	*	*	*	*	*	*	*	*	*
=69	=69	=69	=69	=69	=69	=69	=69	=69	=69	=69	=69	=69	=69	=69	=69	=69	=69	=69
!LO:TX:a:t=P:problem=mixed beam	!	!	!	!	!	!	!	!	!	!	!	!	!	!	!	!	!	!
8G\L	6	.	16g/LL	.	16ee\LL	.	8G\	-gen-	8B\	-gen-	8g\	-gen-	8ee\	-gen-	8r	8r	8e\L	8g\L
.	.	.	16b/	.	16gg\	.	.	.	.	.	.	.	.	.	.	.	.	.
8A\	4	.	16a/	.	16ff#\	.	8A\	-ti-	8A\	-ti-	8f#\	-ti-	8dd\	-ti-	8AA/L	8a/L	8d\	8f#\
.	.	.	16g/	.	16ee\	.	.	.	.	.	.	.	.	.	.	.	.	.
8AA/J	3	.	16f#/	.	16dd\	.	8AA/	-buſ	8A\	-bus	8e\	-bus	8cc#\	-bus	8AA/J	8a/J	8A\J	8e\J
.	.	.	16e/JJ	.	16cc#\JJ	.	.	.	.	.	.	.	.	.	.	.	.	.
=70	=70	=70	=70	=70	=70	=70	=70	=70	=70	=70	=70	=70	=70	=70	=70	=70	=70	=70
!	!	!	!	!LO:DY:t= :mod=%s	!	!LO:DY:t= :mod=%s	!	!	!	!	!	!	!	!	!	!	!	!
!	!	!	!	!LO:MO:mod=!LO&colon;DY&colon;ed=brack	!	!LO:MO:mod=!LO&colon;DY&colon;ed=brack	!	!	!	!	!	!	!	!	!	!	!	!
!	!	!LO:DY:b:rj:t=fo:mod=	!	!null	!	!null	!	!LO:MO:mod=te.	!	!LO:MO:mod=te.	!	!LO:MO:mod=te.	!	!LO:MO:mod=te.	!	!	!	!
4D\	.	f	4f#/	f	16dd\LL	f	4D\	se	4A\	te	4f#\	te	4dd\	te	4D/	4d/	4F#/	4d\
.	.	.	.	.	16ff#\	.	.	.	.	.	.	.	.	.	.	.	.	.
.	.	.	.	.	16aa\	.	.	.	.	.	.	.	.	.	.	.	.	.
.	.	.	.	.	16ddd\	.	.	.	.	.	.	.	.	.	.	.	.	.
8F#\	6 5	.	8g/	.	16ccc#\	.	8r	.	8r	.	8r	.	8r	.	8r	8r	8r	8r
.	.	.	.	.	16ddd\JJ	.	.	.	.	.	.	.	.	.	.	.	.	.
=71	=71	=71	=71	=71	=71	=71	=71	=71	=71	=71	=71	=71	=71	=71	=71	=71	=71	=71
!LO:TX:a:t=P:problem=mixed beam	!	!	!	!	!	!	!LO:TX:a:t=1.:mod=	!	!LO:TX:a:t=16:mod=	!	!LO:TX:a:t=8:mod=	!	!LO:TX:a:t=16:mod=	!	!LO:TX:a:t=16:mod=	!LO:TX:a:t=16:mod=	!	!LO:TX:t=P:problem=takty 71-72 zapisane repetycją
!	!	!	!	!	!	!	!	!	!LO:N:vis=00	!	!LO:N:vis=00	!	!LO:N:vis=00	!	!LO:N:vis=00	!LO:N:vis=00	!	!LO:MO:mod=8g\L
8G\L	6	.	24gg\LL	.	24bb\LL	.	4.r	.	1.r	.	1.r	.	1.r	.	1.r	1.r	8e\L	8g\Lyy
.	.	.	24ff#\	.	24aa\	.	.	.	.	.	.	.	.	.	.	.	.	.
.	.	.	24ee\JJ	.	24gg\JJ	.	.	.	.	.	.	.	.	.	.	.	.	.
!	!	!	!	!	!	!	!	!	!	!	!	!	!	!	!	!	!	!LO:MO:mod=8f#\
8A\	4	.	8dd\L	.	8ff#\L	.	.	.	.	.	.	.	.	.	.	.	8d\	8f#\yy
!	!	!	!	!	!	!LO:MO:mod=.	!	!	!	!	!	!	!	!	!	!	!	!LO:MO:mod=8e\J
8AA/J	3	.	8cc#\J	.	8ee\J	p	.	.	.	.	.	.	.	.	.	.	8A\J	8e\Jyy
!	!	!	!	!	!	!	!LO:LB:g=original	!	!	!	!	!	!	!	!	!	!	!
=72	=72	=72	=72	=72	=72	=72	=72	=72	=72	=72	=72	=72	=72	=72	=72	=72	=72	=72
!	!	!	!	!	!	!LO:DY:t= :mod=%s	!	!	!	!	!	!	!	!	!	!	!	!
!	!	!	!	!LO:DY:rj	!	!null	!LO:TX:a:i:t=Solo	!	!	!	!	!	!	!	!	!	!	!LO:MO:mod=4d\
8D\L	.	p	8dd\L	p	8dd\L	p	8r	.	.	.	.	.	.	.	.	.	4F#/	4d\yy
!	!	!	!	!	!	!	!	!LO:MO:mod=Fi-	!	!	!	!	!	!	!	!	!	!
8D\	.	.	8a\	.	8ff#\	.	8F#\	fi-	.	.	.	.	.	.	.	.	.	.
!	!	!	!	!	!	!	!	!	!	!	!	!	!	!	!	!	!	!LO:MO:mod=8r
8C#\J	6	.	8a\J	.	8ee\J	.	8A\	-at	.	.	.	.	.	.	.	.	8r	8ryy
=73	=73	=73	=73	=73	=73	=73	=73	=73	=73	=73	=73	=73	=73	=73	=73	=73	=73	=73
*	*	*	*tremolo	*	*	*	*	*	*	*	*	*	*	*	*	*	*	*
!	!	!	!	!	!	!	!	!	!	!	!	!	!	!	!	!	!LO:TX:a:t=14:mod=	!LO:TX:a:t=14:mod=
!	!	!	!	!	!	!	!	!	!	!	!	!	!	!	!	!	!LO:N:vis=00	!LO:N:vis=00
8D\L	.	.	8f#/L	.	8dd\L	.	4d\	pax	.	.	.	.	.	.	.	.	1.r	1.r
8F#\	6	.	8f#/	.	8dd\	.	.	.	.	.	.	.	.	.	.	.	.	.
8D\J	.	.	8f#/J	.	8dd\J	.	16D\LL	in	.	.	.	.	.	.	.	.	.	.
.	.	.	.	.	.	.	16F#\JJ	.	.	.	.	.	.	.	.	.	.	.
*	*	*	*Xtremolo	*	*	*	*	*	*	*	*	*	*	*	*	*	*	*
=74	=74	=74	=74	=74	=74	=74	=74	=74	=74	=74	=74	=74	=74	=74	=74	=74	=74	=74
16E'\LL	.	.	8e/L	.	8a/L	.	16E\LL	vir-	.	.	.	.	.	.	.	.	.	.
16C#'\	.	.	.	.	.	.	16C#\JJ	.	.	.	.	.	.	.	.	.	.	.
16D'\	.	.	16d/L	.	16d/L	.	16D\LL	-tu-	.	.	.	.	.	.	.	.	.	.
16E'\	.	.	16e/	.	16e/	.	16E\JJ	.	.	.	.	.	.	.	.	.	.	.
16F#'\	.	.	16f#/	.	16f#/	.	16F#\LL	-te	.	.	.	.	.	.	.	.	.	.
16G#X'\JJ	.	.	16g#X/JJ	.	16g#/JJ	.	16G#X\JJ	.	.	.	.	.	.	.	.	.	.	.
=75	=75	=75	=75	=75	=75	=75	=75	=75	=75	=75	=75	=75	=75	=75	=75	=75	=75	=75
!LO:TX:a:t=P:problem=mixed beam	!	!	!	!	!LO:TX:a:t=P:problem=mixed beam	!	!	!	!LO:N:vis=00	!	!LO:N:vis=00	!	!LO:N:vis=00	!	!LO:N:vis=00	!LO:N:vis=00	!	!
8A\L	.	.	8a/L	.	8a/L	.	8A\	tu-	1.r	.	1.r	.	1.r	.	1.r	1.r	.	.
!	!	!	!	!	!	!	!	!LO:MO:mod=-a&colon;	!	!	!	!	!	!	!	!	!	!
8AA/	.	.	8A/	.	8A/	.	8AA/	-ae	.	.	.	.	.	.	.	.	.	.
!	!	!	!	!	!	!	!	!LO:MO:mod=et	!	!	!	!	!	!	!	!	!	!
8A\J	.	.	8a/J	.	8ee\J	.	8c#\	&	.	.	.	.	.	.	.	.	.	.
=76	=76	=76	=76	=76	=76	=76	=76	=76	=76	=76	=76	=76	=76	=76	=76	=76	=76	=76
8F#\L	.	.	8a/L	.	8dd\L	.	8d\L	a-	.	.	.	.	.	.	.	.	.	.
8E\	6 5	.	8g/	.	8cc#\	.	16c#\L	.	.	.	.	.	.	.	.	.	.	.
.	.	.	.	.	.	.	16B\JJ	.	.	.	.	.	.	.	.	.	.	.
8C#\J	6 5	.	8a/J	.	8dd\J	.	16A\LL	-bun-	.	.	.	.	.	.	.	.	.	.
.	.	.	.	.	.	.	16G\JJ	.	.	.	.	.	.	.	.	.	.	.
=77	=77	=77	=77	=77	=77	=77	=77	=77	=77	=77	=77	=77	=77	=77	=77	=77	=77	=77
*	*	*	*tremolo	*	*	*	*	*	*	*	*	*	*	*	*	*	*	*
!	!	!	!	!	!	!	!	!	!	!	!	!	!	!	!	!	!LO:N:vis=00	!LO:N:vis=00
8D\L	.	.	8a/L	.	8dd\L	.	16F#\LL	-dan-	.	.	.	.	.	.	.	.	1.r	1.r
.	.	.	.	.	.	.	16E\JJ	.	.	.	.	.	.	.	.	.	.	.
8E\	.	.	8a/	.	8cc#\	.	16F#\LL	-ti-	.	.	.	.	.	.	.	.	.	.
.	.	.	.	.	.	.	16G\JJ	.	.	.	.	.	.	.	.	.	.	.
8F#\J	6	.	8a/J	.	8dd\J	.	8A\	-a	.	.	.	.	.	.	.	.	.	.
*	*	*	*Xtremolo	*	*	*	*	*	*	*	*	*	*	*	*	*	*	*
=78	=78	=78	=78	=78	=78	=78	=78	=78	=78	=78	=78	=78	=78	=78	=78	=78	=78	=78
!LO:TX:a:t=P:problem=mixed beam	!	!	!	!	!	!	!	!	!	!	!	!	!	!	!	!	!	!
8G\L	.	.	8g/L	.	8ee\L	.	16G\LL	in	.	.	.	.	.	.	.	.	.	.
.	.	.	.	.	.	.	16B\JJ	.	.	.	.	.	.	.	.	.	.	.
8A\	4	.	8f#/	.	8dd\	.	16A\LL	tur-	.	.	.	.	.	.	.	.	.	.
.	.	.	.	.	.	.	16G\JJ	.	.	.	.	.	.	.	.	.	.	.
8AA/J	3	.	8e/J	.	8cc#\J	.	16F#\	-ri-	.	.	.	.	.	.	.	.	.	.
.	.	.	.	.	.	.	16E\	-bus	.	.	.	.	.	.	.	.	.	.
!	!	!	!LO:PB:g=original	!	!LO:LB:g=original	!	!	!	!	!	!	!	!	!	!	!	!	!
=79	=79	=79	=79	=79	=79	=79	=79	=79	=79	=79	=79	=79	=79	=79	=79	=79	=79	=79
!	!	!	!	!	!	!	!LO:MO:mod=*tuplet	!	!	!	!	!	!	!	!	!	!	!
*tremolo	*	*	*	*	*	*	*Xtuplet	*	*	*	*	*	*	*	*	*	*	*
!	!	!	!	!	!	!	!	!	!LO:N:vis=00	!	!LO:TX:a:i:t=Solo	!	!LO:N:vis=00	!	!LO:N:vis=00	!LO:N:vis=00	!	!
8D\L	.	.	4f#/	.	4dd\	.	24F#\LL	tu-	1.r	.	8r	.	1.r	.	1.r	1.r	.	.
.	.	.	.	.	.	.	24E\	.	.	.	.	.	.	.	.	.	.	.
.	.	.	.	.	.	.	24D\JJ	.	.	.	.	.	.	.	.	.	.	.
!	!	!	!	!	!	!	!	!LO:MO:mod=-is.	!	!	!	!LO:MO:mod=Pro-	!	!	!	!	!	!
8D\	.	.	.	.	.	.	8D\	-is	.	.	8a\	pro-	.	.	.	.	.	.
8D\J	.	.	8a/	.	8ff#\	.	8r	.	.	.	8a\	-pter	.	.	.	.	.	.
!	!	!	!	!	!	!	!	!	!	!	!LO:LB:g=original	!	!	!	!	!	!	!
=80	=80	=80	=80	=80	=80	=80	=80	=80	=80	=80	=80	=80	=80	=80	=80	=80	=80	=80
*	*	*	*tremolo	*	*	*	*	*	*	*	*	*	*	*	*	*	*	*
!	!	!	!	!	!	!	!LO:TX:a:t=7:mod=	!	!	!	!	!	!	!	!	!	!	!
!	!	!	!	!	!	!	!LO:N:vis=00	!	!	!	!	!	!	!	!	!	!	!
8D\L	6 4	.	8b\L	.	4gg\	.	1.r	.	.	.	4b\	fra-	.	.	.	.	.	.
8D\	.	.	8b\	.	.	.	.	.	.	.	.	.	.	.	.	.	.	.
8D\J	.	.	8b\J	.	16bb\LL	.	.	.	.	.	16dd\LL	-tres	.	.	.	.	.	.
.	.	.	.	.	16gg\JJ	.	.	.	.	.	16b\JJ	.	.	.	.	.	.	.
*	*	*	*Xtremolo	*	*	*	*	*	*	*	*	*	*	*	*	*	*	*
!LO:LB:g=original	!	!	!	!	!	!	!	!	!	!	!	!	!	!	!	!	!	!
=81	=81	=81	=81	=81	=81	=81	=81	=81	=81	=81	=81	=81	=81	=81	=81	=81	=81	=81
!	!	!	!	!	!	!	!	!	!	!	!	!	!	!	!	!	!LO:N:vis=00	!LO:N:vis=00
8D\L	6 4	.	8b\L	.	8gg\L	.	.	.	.	.	8b\	me-	.	.	.	.	1.r	1.r
8D\	5 3	.	8a\	.	8ff#\	.	.	.	.	.	8a\	-os	.	.	.	.	.	.
8D\J	.	.	8a\J	.	8ff#\J	.	.	.	.	.	8a\	et	.	.	.	.	.	.
=82	=82	=82	=82	=82	=82	=82	=82	=82	=82	=82	=82	=82	=82	=82	=82	=82	=82	=82
*	*	*	*tremolo	*	*	*	*	*	*	*	*	*	*	*	*	*	*	*
8D\L	6_ 4_	.	8b\L	.	4gg\	.	.	.	.	.	8b\	pro-	.	.	.	.	.	.
8D\	.	.	8b\	.	.	.	.	.	.	.	8b\	-xi-	.	.	.	.	.	.
8D\J	.	.	8b\J	.	16bb\LL	.	.	.	.	.	16dd\LL	-mos	.	.	.	.	.	.
.	.	.	.	.	16gg\JJ	.	.	.	.	.	16b\JJ	.	.	.	.	.	.	.
*	*	*	*Xtremolo	*	*	*	*	*	*	*	*	*	*	*	*	*	*	*
=83	=83	=83	=83	=83	=83	=83	=83	=83	=83	=83	=83	=83	=83	=83	=83	=83	=83	=83
!	!	!	!	!	!	!	!	!	!LO:N:vis=00	!	!	!	!LO:N:vis=00	!	!LO:N:vis=00	!LO:N:vis=00	!	!
8D\L	6 4	.	8b\L	.	8gg\L	.	.	.	1.r	.	8b\	me-	1.r	.	1.r	1.r	.	.
!	!	!	!	!	!	!	!	!	!	!	!	!LO:MO:mod=-os,	!	!	!	!	!	!
8D\	5_ 3_	.	8a\	.	8ff#\	.	.	.	.	.	8a\	-os	.	.	.	.	.	.
8D\J	.	.	8a\J	.	8ff#\J	.	.	.	.	.	8a\	lo-	.	.	.	.	.	.
*Xtremolo	*	*	*	*	*	*	*	*	*	*	*	*	*	*	*	*	*	*
=84	=84	=84	=84	=84	=84	=84	=84	=84	=84	=84	=84	=84	=84	=84	=84	=84	=84	=84
*	*	*	*tremolo	*	*	*	*	*	*	*	*	*	*	*	*	*	*	*
!	!	!	!	!	!	!	!LO:N:vis=0	!	!	!	!	!	!	!	!	!	!	!
8F#\L	6	.	8a\L	.	8dd\L	.	2.r	.	.	.	4a\	-que-	.	.	.	.	.	.
8E\	.	.	8a\	.	8cc#\	.	.	.	.	.	.	.	.	.	.	.	.	.
8D\J	.	.	8a\J	.	8dd\J	.	.	.	.	.	16b\LL	-bar	.	.	.	.	.	.
.	.	.	.	.	.	.	.	.	.	.	16a\JJ	.	.	.	.	.	.	.
=85	=85	=85	=85	=85	=85	=85	=85	=85	=85	=85	=85	=85	=85	=85	=85	=85	=85	=85
!	!	!	!	!	!	!	!	!	!	!	!	!	!	!	!	!	!LO:N:vis=0	!LO:N:vis=0
8C#/L	6 5	.	8a\L	.	4ee\	.	.	.	.	.	4g\	pa-	.	.	.	.	2.r	2.r
8AA/	.	.	8a\	.	.	.	.	.	.	.	.	.	.	.	.	.	.	.
8D/J	.	.	8a\J	.	8dd\	.	.	.	.	.	8f#\	-cem	.	.	.	.	.	.
*	*	*	*Xtremolo	*	*	*	*	*	*	*	*	*	*	*	*	*	*	*
=86	=86	=86	=86	=86	=86	=86	=86	=86	=86	=86	=86	=86	=86	=86	=86	=86	=86	=86
!	!	!	!	!	!	!	!	!	!	!	!LO:MO:mod=*tuplet	!	!	!	!	!	!	!
*	*	*	*	*	*	*	*	*	*	*	*Xtuplet	*	*	*	*	*	*	*
!LO:TX:a:t=P:problem=mixed beam	!	!	!	!	!	!	!	!	!	!	!	!	!	!	!	!	!	!
8G\L	6	.	24b\LL	.	24gg\LL	.	4.r	.	.	.	24b\LL	de	.	.	.	.	.	.
.	.	.	24a\	.	24ff#\	.	.	.	.	.	24a\	.	.	.	.	.	.	.
.	.	.	24g\JJ	.	24ee\JJ	.	.	.	.	.	24g\JJ	.	.	.	.	.	.	.
8A\	4	.	8f#\L	.	8dd\L	.	.	.	.	.	8f#\L	.	.	.	.	.	.	.
!	!	!	!	!	!	!	!	!	!LO:TX:a:t=Re:mod=	!	!	!	!	!	!	!	!	!
8AA/J	3	.	8e\J	.	8cc#\J	.	.	.	.	.	8e\J	.	.	.	.	.	.	.
!	!	!	!	!	!	!	!LO:LB:g=original	!	!LO:LB:g=original	!	!	!	!	!	!	!	!	!
=87	=87	=87	=87	=87	=87	=87	=87	=87	=87	=87	=87	=87	=87	=87	=87	=87	=87	=87
*tremolo	*	*	*	*	*	*	*	*	*	*	*	*	*	*	*	*	*	*
!	!	!LO:DY:rj:t=fo	!	!LO:DY:rj	!	!LO:DY:rj	!	!	!LO:TX:a:t=Tur:mod=	!	!LO:N:vis=4	!LO:MO:mod=te&colon;	!	!	!	!	!	!
8D\L	.	f	8d/L	f	16dd\LL	f	8r	.	8r	.	8f#\	te	8r	.	8D/L	8dd\L	4.d\	4.f#\
.	.	.	.	.	16a\	.	.	.	.	.	.	.	.	.	.	.	.	.
!	!	!	!	!	!	!	!	!LO:MO:mod=Pro-	!	!LO:MO:mod=Pro-	!LO:N:vis=4	!LO:MO:mod=Pro-	!	!LO:MO:mod=Pro-	!	!	!	!
8D\	.	.	8a/	.	16ff#\	.	8D\	pro-	8d\	pro-	8a\	pro-	8ff#\	pro-	8D/J	8dd\J	.	.
.	.	.	.	.	16dd\	.	.	.	.	.	.	.	.	.	.	.	.	.
!	!	!	!	!	!	!	!	!	!	!	!LO:N:vis=4	!	!	!	!	!	!	!
8D\J	.	.	8a/J	.	16aa\	.	8D\	-pter	8d\	-pter	8a\	-pter	8ff#\	-pter	8r	8r	.	.
.	.	.	.	.	16ff#\JJ	.	.	.	.	.	.	.	.	.	.	.	.	.
=88	=88	=88	=88	=88	=88	=88	=88	=88	=88	=88	=88	=88	=88	=88	=88	=88	=88	=88
!	!	!	!	!	!	!	!	!LO:MO:mod=do-	!	!LO:MO:mod=do-	!	!LO:MO:mod=do-	!	!	!	!	!	!
8D\L	.	.	16dd\LL	.	16dd\LL	.	4D\	Do-	4d\	Do-	4a\	Do-	4ff#\	do-	8D/L	8dd\L	4.d\	4.f#\
.	.	.	16a\	.	16a\	.	.	.	.	.	.	.	.	.	.	.	.	.
8D\	.	.	16ff#\	.	16ff#\	.	.	.	.	.	.	.	.	.	8D/J	8dd\J	.	.
.	.	.	16dd\JJ	.	16dd\	.	.	.	.	.	.	.	.	.	.	.	.	.
!	!	!	!LO:SIC:s=16a/	!	!	!	!	!	!	!	!	!	!	!	!	!	!	!
8D\J	.	.	16a/LL	.	16cc#\	.	8D\	-mum	8d\	-mum	8a\	-mum	8ff#\	-mum	8r	8r	.	.
.	.	.	16f#/JJ	.	16a\JJ	.	.	.	.	.	.	.	.	.	.	.	.	.
=89	=89	=89	=89	=89	=89	=89	=89	=89	=89	=89	=89	=89	=89	=89	=89	=89	=89	=89
!	!	!	!LO:TX:a:t=P:problem=mixed beam	!	!LO:TX:a:t=P:problem=mixed beam	!	!	!	!	!	!	!	!	!	!	!	!	!
8D\L	.	.	16d/LL	.	16d/LL	.	8.D\	Do-	8.d\	Do-	8.a\	Do-	8.ff#\	Do-	8D/L	8dd\L	4.d\	4.f#\
.	.	.	16dd\	.	16dd\	.	.	.	.	.	.	.	.	.	.	.	.	.
8D\	.	.	16ff#\	.	16ff#\	.	.	.	.	.	.	.	.	.	8D/J	8dd\J	.	.
.	.	.	16dd\	.	16dd\	.	16D\	-mi-	16d\	-mi-	16a\	-mi-	16ff#\	-mi-	.	.	.	.
8D\J	.	.	16aa\	.	16aa\	.	8D\	-ni	8d\	-ni	8a\	-ni	8ff#\	-ni	8r	8r	.	.
.	.	.	16ff#\JJ	.	16ff#\JJ	.	.	.	.	.	.	.	.	.	.	.	.	.
!	!	!	!LO:LB:g=original	!	!LO:LB:g=original	!	!	!	!	!	!LO:LB:g=original	!	!	!	!LO:LB:g=original	!	!	!
=90	=90	=90	=90	=90	=90	=90	=90	=90	=90	=90	=90	=90	=90	=90	=90	=90	=90	=90
8A\L	7	.	16ee\LL	.	16ee\LL	.	4A\	De-	4c#\	De-	4a\	De-	4ee\	De-	8AA/L	8a/L	4.e\	4.g\
.	.	.	16dd\	.	16dd\	.	.	.	.	.	.	.	.	.	.	.	.	.
8A\	.	.	16ee\	.	16ee\	.	.	.	.	.	.	.	.	.	8AA/	8a/	.	.
.	.	.	16ff#\	.	16ff#\	.	.	.	.	.	.	.	.	.	.	.	.	.
8A\J	.	.	16gg\	.	16gg\	.	8A\	-i	8c#\	-i	8a\	-i	8ee\	-i	8AA/J	8a/J	.	.
.	.	.	16ee\JJ	.	16ee\JJ	.	.	.	.	.	.	.	.	.	.	.	.	.
*Xtremolo	*	*	*	*	*	*	*	*	*	*	*	*	*	*	*	*	*	*
=91	=91	=91	=91	=91	=91	=91	=91	=91	=91	=91	=91	=91	=91	=91	=91	=91	=91	=91
!	!	!	!	!	!	!	!	!	!	!	!	!	!	!	!	!LO:TX:a:t=P:problem=mixed beam	!	!
8D\L	.	.	16dd\LL	.	16dd\LL	.	8D\	no-	8d\	no-	8a\	no-	8ff#\	no-	8D/L	8dd\L	4d\	4f#\
.	.	.	16ff#\	.	16ff#\	.	.	.	.	.	.	.	.	.	.	.	.	.
!	!	!	!	!	!	!	!	!LO:MO:mod=-stri,	!	!LO:MO:mod=-stri,	!	!LO:MO:mod=-stri,	!	!LO:MO:mod=-stri,	!	!	!	!
8d\	.	.	16aa\	.	16aa\	.	8d\	-ſtri	8d\	-stri	8a\	-stri	8ff#\	-stri	8D/	8d/	.	.
.	.	.	16ff#\	.	16ff#\	.	.	.	.	.	.	.	.	.	.	.	.	.
!	!	!	!	!	!	!	!	!	!	!LO:MO:mod=quae-	!	!LO:MO:mod=quae-	!	!LO:MO:mod=quae-	!	!	!	!
8c#\J	6	.	16ee\	.	16ee\	.	8c#\	quae-	8e\	que-	8a\	que-	8gg\	que-	8AA/J	8a\J	8e\	8g\
.	.	.	16gg\JJ	.	16gg\JJ	.	.	.	.	.	.	.	.	.	.	.	.	.
=92	=92	=92	=92	=92	=92	=92	=92	=92	=92	=92	=92	=92	=92	=92	=92	=92	=92	=92
!	!	!	!	!	!	!	!	!	!	!	!	!	!	!	!	!LO:TX:a:t=P:problem=wykreślony takt	!	!
!LO:TX:a:t=P:problem=mixed beam	!	!	!	!	!	!	!	!	!	!	!	!	!	!	!	!LO:TX:a:t=P:problem=mixed beam	!	!
8d\L	.	.	8ff#\L	.	16ff#\LL	.	4d\	-si-	4d\	-si-	4a\	-si-	4ff#\	-si-	8D/L	8dd\L	4.d\	4.f#\
.	.	.	.	.	16aa\	.	.	.	.	.	.	.	.	.	.	.	.	.
8D/	.	.	8ff#\	.	16ddd\	.	.	.	.	.	.	.	.	.	8D/	8d/	.	.
.	.	.	.	.	16ccc#\	.	.	.	.	.	.	.	.	.	.	.	.	.
8D/J	.	.	8ff#\J	.	16bb\	.	8D\	-vi	8d\	-vi	8a\	-vi	8ff#\	-vi	8D/J	8dd\J	.	.
.	.	.	.	.	16aa\JJ	.	.	.	.	.	.	.	.	.	.	.	.	.
!	!	!	!	!	!	!	!	!	!	!	!	!	!LO:PB:g=original	!	!	!	!LO:LB:g=original	!
=93	=93	=93	=93	=93	=93	=93	=93	=93	=93	=93	=93	=93	=93	=93	=93	=93	=93	=93
8A\L	.	.	8ee\L	.	16aa\LL	.	4A\	bo-	4c#\	bo-	4g\	bo-	4ee\	bo-	4AA/	4a/	4A/	4e\
.	.	.	.	.	16gg\	.	.	.	.	.	.	.	.	.	.	.	.	.
8A\	.	.	8ee\	.	16ff#\	.	.	.	.	.	.	.	.	.	.	.	.	.
.	.	.	.	.	16gg\	.	.	.	.	.	.	.	.	.	.	.	.	.
8B\J	.	.	8dd\J	.	16ff#\	.	8B\	-na	8d\	-na	8f#\	-na	8dd\	-na	8r	8r	8d\	8f#\
.	.	.	.	.	16ddd\JJ	.	.	.	.	.	.	.	.	.	.	.	.	.
!	!	!	!	!	!	!	!	!	!	!	!	!	!	!	!	!LO:LB:g=original	!	!
=94	=94	=94	=94	=94	=94	=94	=94	=94	=94	=94	=94	=94	=94	=94	=94	=94	=94	=94
!LO:TX:a:t=P:problem=mixed beam	!	!	!LO:SIC:s=8qaa/	!	!	!	!LO:TX:a:t=P:problem=mixed beam	!	!	!	!	!	!	!	!	!	!	!
.	.	.	8qqaa/	.	.	.	.	.	.	.	.	.	.	.	.	.	.	.
!	!	!	!	!	!	!	!	!	!	!	!LO:SIC:s=8g\L	!	!LO:SIC:s=8ee\L	!	!	!	!	!
8G\L	6	.	24gg\LL	.	24bb\LL	.	8G\L	ti-	8B\	ti-	(8g\L	ti-	(8ee\L	ti-	8r	8r	8e\L	8g\L
.	.	.	24ff#\	.	24aa\	.	.	.	.	.	.	.	.	.	.	.	.	.
.	.	.	24ee\JJ	.	24gg\JJ	.	.	.	.	.	.	.	.	.	.	.	.	.
8A\	4	.	8dd\L	.	8ff#\L	.	8A\	.	4A\	.	8f#\	.	8dd\	.	8AA/L	8a/L	8d\	8f#\
!	!	!	!	!	!	!	!	!	!	!	!LO:SIC:s=8e\J	!	!LO:SIC:s=8cc#\J	!	!	!	!	!
8AA/J	3	.	8cc#\J	.	8ee\J	.	8AA/J	.	.	.	8e\J)	.	8cc#\J)	.	8AA/J	8a/J	8A\J	8e\J
=95	=95	=95	=95	=95	=95	=95	=95	=95	=95	=95	=95	=95	=95	=95	=95	=95	=95	=95
!	!	!LO:MO:mod=.	!	!	!	!	!	!LO:MO:mod=-bi.	!	!LO:MO:mod=-bi.	!	!LO:MO:mod=-bi.	!	!LO:MO:mod=-bi.	!	!	!	!
4D\	.	p	4dd\	.	4dd\	.	4D\	-bi	4A\	-bi	8f#\	-bi	8dd\	-bi	4D/	4d/	4F#/	4d\
!	!	!	!	!	!	!	!	!	!	!	!LO:MO:mod=!LO&colon;TX&colon;a&colon;i&colon;t=Solo	!	!	!	!	!	!	!
!	!	!	!	!	!	!	!	!	!	!	!null	!	!LO:TX:a:i:t=Solo	!	!	!	!	!
.	.	.	.	.	.	.	.	.	.	.	8f#\	Glo-	8dd\	Glo-	.	.	.	.
8r	.	.	8r	.	8r	.	8r	.	8r	.	16f#\	-ri-	16dd\	-ri-	8r	8r	8r	8r
.	.	.	.	.	.	.	.	.	.	.	16f#\	-a	16dd\	-a	.	.	.	.
!	!	!	!	!	!	!	!	!	!LO:LB:g=original	!	!	!	!	!	!	!	!	!
=96	=96	=96	=96	=96	=96	=96	=96	=96	=96	=96	=96	=96	=96	=96	=96	=96	=96	=96
!	!	!LO:DY:t= :mod=%s	!	!LO:DY:rj	!	!LO:DY:rj	!LO:TX:a:t=6:mod=	!	!LO:TX:a:t=6:mod=	!	!	!	!	!	!LO:TX:a:t=6:mod=	!LO:TX:a:t=6:mod=	!LO:TX:a:t=4:mod=	!LO:TX:a:t=4:mod=
!	!	!null	!LO:SIC:s=(16d/LL	!	!	!	!LO:N:vis=00	!	!LO:N:vis=00	!	!	!	!	!LO:MO:mod=Pa-	!LO:N:vis=00	!LO:N:vis=00	!LO:N:vis=00	!LO:N:vis=00
4D\	.	p	16d/LL	p	(16dd\LL	p	1.r	.	1.r	.	4.f#\	Pa-	4.dd\	pa-	1.r	1.r	1.r	1.r
.	.	.	16c#/	.	16cc#\	.	.	.	.	.	.	.	.	.	.	.	.	.
.	.	.	16d/	.	16dd\	.	.	.	.	.	.	.	.	.	.	.	.	.
!	!	!	!LO:SIC:s=16f#/	!	!	!	!	!	!	!	!	!	!	!	!	!	!	!
.	.	.	(16f#/	.	16ff#\	.	.	.	.	.	.	.	.	.	.	.	.	.
8r	.	.	16e/	.	16ee\	.	.	.	.	.	.	.	.	.	.	.	.	.
.	.	.	16d/JJ)	.	16dd\JJ)	.	.	.	.	.	.	.	.	.	.	.	.	.
=97	=97	=97	=97	=97	=97	=97	=97	=97	=97	=97	=97	=97	=97	=97	=97	=97	=97	=97
!	!	!	!	!	!	!	!	!	!	!	!	!LO:MO:mod=-tri,	!	!LO:MO:mod=-tri,	!	!	!	!
4A\	.	.	4c#/	.	4cc#\	.	.	.	.	.	8e\	-tri	8cc#\	-tri	.	.	.	.
.	.	.	.	.	.	.	.	.	.	.	8g\	glo-	8ee\	glo-	.	.	.	.
8r	.	.	8r	.	8r	.	.	.	.	.	16g\	-ri-	16ee\	-ri-	.	.	.	.
.	.	.	.	.	.	.	.	.	.	.	16g\	-a	16ee\	-a	.	.	.	.
!LO:LB:g=original	!	!	!LO:LB:g=original	!	!	!	!	!	!	!	!	!	!	!	!	!	!	!
=98	=98	=98	=98	=98	=98	=98	=98	=98	=98	=98	=98	=98	=98	=98	=98	=98	=98	=98
!	!	!	!LO:SIC:s=(16e/LL	!	!	!	!	!	!	!	!	!LO:MO:mod=Fi-	!	!LO:MO:mod=Fi-	!	!	!	!
4AA/	.	.	16e/LL	.	(16ee\LL	.	.	.	.	.	4g\	fi-	4ee\	fi-	.	.	.	.
.	.	.	16d/	.	16dd\	.	.	.	.	.	.	.	.	.	.	.	.	.
.	.	.	16e/	.	16ee\	.	.	.	.	.	.	.	.	.	.	.	.	.
.	.	.	16g/	.	16gg\	.	.	.	.	.	.	.	.	.	.	.	.	.
8r	.	.	16f#/	.	16ff#\	.	.	.	.	.	8g\	-li-	8ee\	-li-	.	.	.	.
!	!	!	!LO:SIC:s=16e/JJ)	!	!	!	!	!	!	!	!	!	!	!	!	!	!	!
.	.	.	16e/JJ	.	16ee\JJ)	.	.	.	.	.	.	.	.	.	.	.	.	.
!	!	!	!	!	!LO:LB:g=original	!	!	!	!	!	!	!	!	!	!	!	!	!
=99	=99	=99	=99	=99	=99	=99	=99	=99	=99	=99	=99	=99	=99	=99	=99	=99	=99	=99
!	!	!	!	!	!	!	!	!	!	!	!	!LO:MO:mod=-o,	!LO:N:vis=4	!LO:MO:mod=-o,	!	!	!	!
4D\	.	.	4d/	.	4dd\	.	.	.	.	.	8f#\	-o	8dd\	-o	.	.	.	.
.	.	.	.	.	.	.	.	.	.	.	8a\	et	8ff#\	et	.	.	.	.
!	!	!	!	!	!	!	!	!	!	!	!	!LO:MO:mod=Spi-	!	!LO:MO:mod=Spi-	!	!	!	!
8d\	.	.	8r	.	8r	.	.	.	.	.	8a\	spi-	8ff#\	spi-	.	.	.	.
!	!	!	!	!	!	!	!	!	!	!	!	!	!	!	!	!	!	!LO:LB:g=original
=100	=100	=100	=100	=100	=100	=100	=100	=100	=100	=100	=100	=100	=100	=100	=100	=100	=100	=100
!	!	!	!	!	!	!	!LO:N:vis=0	!	!LO:N:vis=0	!	!	!	!	!	!LO:N:vis=0	!LO:N:vis=0	!	!
8A\L	.	.	4e/	.	4cc#\	.	2.r	.	2.r	.	8.g\	-ri-	8.ee\	-ri-	2.r	2.r	8r	8r
8c#\	6	.	.	.	.	.	.	.	.	.	.	.	.	.	.	.	8e\L	8g\L
.	.	.	.	.	.	.	.	.	.	.	16g\	-tu-	16ff#\	-tu-	.	.	.	.
8d\J	.	.	8f#/	.	8dd\	.	.	.	.	.	8f#\	-i	8dd\	-i	.	.	8d\J	8f#\J
!	!	!	!	!	!	!	!	!	!	!	!LO:LB:g=original	!	!LO:LB:g=original	!	!	!	!	!
=101	=101	=101	=101	=101	=101	=101	=101	=101	=101	=101	=101	=101	=101	=101	=101	=101	=101	=101
!LO:TX:a:t=P:problem=mixed beam	!	!	!	!	!	!	!	!	!	!	!LO:SIC:s=8g\L	!LO:MO:mod=S(an)-	!	!	!	!	!	!
8G\L	6	.	8g/L	.	8ee\L	.	.	.	.	.	(8g\L	sa(n)-	8ee\L	San-	.	.	8e\L	8g\L
8A\	4	.	8f#/	.	8dd\	.	.	.	.	.	8f#\	.	8dd\	.	.	.	8d\	8f#\
!	!	!	!	!	!	!	!	!	!	!	!LO:SIC:s=8e\J	!	!	!	!	!	!	!
8AA/J	3	.	8e/J	.	8cc#\J	.	.	.	.	.	8e\J)	.	8cc#\J	.	.	.	8A\J	8e\J
=102	=102	=102	=102	=102	=102	=102	=102	=102	=102	=102	=102	=102	=102	=102	=102	=102	=102	=102
!	!	!LO:DY:t= :mod=%s	!	!	!	!	!	!	!	!	!	!	!	!	!	!	!	!
!	!	!LO:MO:mod=!LO&colon;DY&colon;ed=brack	!	!	!	!	!	!	!	!	!	!	!	!	!	!	!	!
!	!	!null	!	!LO:DY:rj	!	!LO:DY:rj:t=fo	!	!	!	!	!	!LO:MO:mod=-cto.	!	!LO:MO:mod=-cto.	!	!	!	!
8D\L	.	f	8f#/L	f	16dd\LL	f	8D\L	Si-	4d\	Sic-	8f#\	-cto	8dd\	-cto	8D/L	8dd\L	8d\L	8f#\L
.	.	.	.	.	16a\	.	.	.	.	.	.	.	.	.	.	.	.	.
!	!	!	!	!	!	!	!	!	!	!	!	!LO:MO:mod=Sic-	!	!LO:MO:mod=Sic-	!	!	!	!
8F#\	.	.	8a/	.	16dd\	.	8F#\J	.	.	.	8a\	sic-	8ff#\	sic-	8D/	8dd\	8d\	8f#\
.	.	.	.	.	16ff#\	.	.	.	.	.	.	.	.	.	.	.	.	.
8D\J	.	.	8a/J	.	16aa\	.	8D\	-cut	8d\	-ut	8a\	-ut	8ff#\	-ut	8D/J	8dd\J	8d\J	8f#\J
.	.	.	.	.	16ff#\JJ	.	.	.	.	.	.	.	.	.	.	.	.	.
=103	=103	=103	=103	=103	=103	=103	=103	=103	=103	=103	=103	=103	=103	=103	=103	=103	=103	=103
!LO:TX:a:t=P:problem=mixed beam	!	!	!	!	!	!	!	!	!	!	!	!	!	!	!	!	!	!
8A\L	4	.	8dd\L	.	8ff#\L	.	8A\	e-	8d\	e-	8a\	e-	8ff#\	e-	8AA/L	8a/L	8d\L	8f#\L
!	!	!	!	!	!	!	!	!LO:MO:mod=-rat,	!	!LO:MO:mod=-rat,	!	!LO:MO:mod=-rat,	!	!LO:MO:mod=-rat,	!	!	!	!
8AA/J	3	.	16cc#\L	.	16ee\L	.	8AA/	-rat	8c#\	-rat	8a\	-rat	8ee\	-rat	8AA/J	8a/J	8A\J	8e\J
.	.	.	16a\	.	16cc#\	.	.	.	.	.	.	.	.	.	.	.	.	.
8r	.	.	16b\	.	16dd\	.	8r	.	8r	.	8r	.	8r	.	8r	8r	8r	8r
.	.	.	16cc#\JJ	.	16ee\JJ	.	.	.	.	.	.	.	.	.	.	.	.	.
!	!	!	!	!	!	!	!LO:PB:g=original	!	!	!	!	!	!	!	!	!	!	!
=104	=104	=104	=104	=104	=104	=104	=104	=104	=104	=104	=104	=104	=104	=104	=104	=104	=104	=104
*	*	*	*	*	*	*	*	*	*	*ij	*	*	*	*ij	*	*	*	*
!	!	!	!LO:TX:a:t=P:problem=mixed beam	!	!LO:TX:a:t=P:problem=mixed beam	!	!	!	!	!	!	!	!	!	!LO:TX:a:t=4:mod=	!LO:TX:a:t=4:mod=	!	!
!	!	!	!	!	!	!	!	!LO:MO:mod=sic-	!	!LO:MO:mod=sic-	!	!	!	!	!LO:N:vis=00	!LO:N:vis=00	!	!
8BB/L	.	.	8dd\L	.	16dd\LL	.	8BB/L	Si-	4B\	Sic-	4f#\	sic-	4dd\	sic-	1.r	1.r	8F#/L	8f#\L
.	.	.	.	.	16f#/JJ	.	.	.	.	.	.	.	.	.	.	.	.	.
8D/	6	.	8f#/	.	16b\LL	.	8D/J	.	.	.	.	.	.	.	.	.	8F#/	8f#\
.	.	.	.	.	16dd\	.	.	.	.	.	.	.	.	.	.	.	.	.
!	!	!	!	!	!	!	!	!LO:MO:mod=-ut	!	!	!	!	!	!	!	!	!	!
8BB/J	.	.	8f#/J	.	16ff#\	.	8BB/	-cut	8B\	-ut	8f#\	-ut	8dd\	-ut	.	.	8F#/J	8f#\J
.	.	.	.	.	16dd\JJ	.	.	.	.	.	.	.	.	.	.	.	.	.
=105	=105	=105	=105	=105	=105	=105	=105	=105	=105	=105	=105	=105	=105	=105	=105	=105	=105	=105
!LO:TX:a:t=P:problem=mixed beam	!	!	!	!	!	!	!	!	!	!	!	!	!	!	!	!	!	!
8F#\L	4	.	8b/L	.	8dd\L	.	8F#\	e-	8B\	e-	8f#\	e-	8dd\	e-	.	.	8F#/L	8f#\L
!	!	!	!	!	!	!	!	!LO:MO:mod=-rat,	!	!LO:MO:mod=-rat,	!	!LO:MO:mod=-rat,	!	!LO:MO:mod=-rat,	!	!	!	!
8FF#/J	#	.	16a#X/L	.	16cc#\L	.	8FF#/	-rat	8A#X\	-rat	8f#\	-rat	8cc#\	-rat	.	.	8F#/J	8f#\J
.	.	.	16f#/	.	16a#X\	.	.	.	.	.	.	.	.	.	.	.	.	.
8r	.	.	16g/	.	16b\	.	8r	.	8r	.	8r	.	8r	.	.	.	8r	8r
.	.	.	16a#/JJ	.	16cc#\JJ	.	.	.	.	.	.	.	.	.	.	.	.	.
!	!	!	!LO:LB:g=original	!	!	!	!	!	!	!	!	!	!	!	!	!	!	!
=106	=106	=106	=106	=106	=106	=106	=106	=106	=106	=106	=106	=106	=106	=106	=106	=106	=106	=106
*	*	*	*	*	*	*	*	*ij	*	*	*	*ij	*	*	*	*	*	*
!	!	!	!	!	!LO:TX:a:t=P:problem=mixed beam	!	!	!LO:MO:mod=sic-	!	!LO:MO:mod=sic-	!	!	!	!	!	!	!	!
8G\L	.	.	8b/L	.	16b\LL	.	8G\L	Si-	4d\	Sic-	4d\	sic-	4b\	sic-	.	.	8D/L	8d\L
.	.	.	.	.	16d/JJ	.	.	.	.	.	.	.	.	.	.	.	.	.
8B\	6	.	8d/	.	16g\LL	.	8B\J	.	.	.	.	.	.	.	.	.	8D/	8d\
.	.	.	.	.	16b\	.	.	.	.	.	.	.	.	.	.	.	.	.
8G\J	.	.	8d/J	.	16dd\	.	8G\	-cut	8d\	-ut	8d\	-ut	8b\	-ut	.	.	8D/J	8d\J
.	.	.	.	.	16b\JJ	.	.	.	.	.	.	.	.	.	.	.	.	.
=107	=107	=107	=107	=107	=107	=107	=107	=107	=107	=107	=107	=107	=107	=107	=107	=107	=107	=107
8d\L	4	.	8g/L	.	8b\L	.	8d\	e-	8d\	e-	8g\	e-	8b\	e-	.	.	8D/L	8d\L
8D\	.	.	8f#/	.	16a\L	.	8D\	-rat	8d\	-rat	8f#\	-rat	8a\	-rat	.	.	8D/J	8d\J
*	*	*	*	*	*	*	*	*Xij	*	*Xij	*	*Xij	*	*Xij	*	*	*	*
.	.	.	.	.	16dd\	.	.	.	.	.	.	.	.	.	.	.	.	.
8F#\J	6	.	8a/J	.	16ff#\	.	8F#\	in	8d\	in	8a\	in	8dd\	in	.	.	8r	8r
.	.	.	.	.	16aa\JJ	.	.	.	.	.	.	.	.	.	.	.	.	.
=108	=108	=108	=108	=108	=108	=108	=108	=108	=108	=108	=108	=108	=108	=108	=108	=108	=108	=108
*	*	*	*tremolo	*	*	*	*	*	*	*	*	*	*	*	*	*	*	*
!	!	!	!	!	!	!	!	!	!LO:SIC:s=8c#\L	!	!	!	!	!	!	!	!	!
8E\L	6	.	8a/L	.	16aa\LL	.	8E\L	prin-	(8c#\	prin-	8a\	prin-	8ee\L	prin-	8r	8r	8A\L	8e\L
.	.	.	.	.	16gg\	.	.	.	.	.	.	.	.	.	.	.	.	.
!	!	!	!	!	!	!	!	!	!LO:SIC:s=8e\	!	!	!	!	!	!	!	!LO:TX:a:t=d:mod=	!
8C#\	.	.	8a/	.	16ee\	.	8C#\	.	8e\L	.	8a\	-ci-	8gg\	.	8AA/L	8a/L	8e\	8g\
.	.	.	.	.	16gg\	.	.	.	.	.	.	.	.	.	.	.	.	.
!	!	!	!	!	!	!	!	!	!LO:SIC:s=8d\J	!	!	!	!	!	!	!	!	!
8D\J	6	.	8a/J	.	16ff#\	.	8D\J	.	8d\J)	.	8a\	-pi-	8ff#\J	.	8D/J	8dd/J	8d\J	8f#\J
.	.	.	.	.	16dd\JJ	.	.	.	.	.	.	.	.	.	.	.	.	.
!	!	!	!	!	!LO:LB:g=original	!	!	!	!	!	!	!	!LO:LB:g=original	!	!	!	!	!
=109	=109	=109	=109	=109	=109	=109	=109	=109	=109	=109	=109	=109	=109	=109	=109	=109	=109	=109
*tremolo	*	*	*	*	*	*	*	*	*	*	*	*	*	*	*	*	*	*
!	!	!	!	!	!LO:SIC:v:s=16ee\LL	!	!	!	!	!	!	!LO:MO:mod=-o,	!	!	!	!	!	!
8A\L	.	.	8cc#\L	.	16dd\LL	.	16A\	ci-	16c#\	-ci-	4a\	-o	16ee\	-ci-	4AA/	4a/	4.A/	4.e\
.	.	.	.	.	16cc#\	.	16A\	-pi-	16c#\	-pi-	.	.	16ee\	-pi-	.	.	.	.
!	!	!	!	!	!	!	!	!LO:MO:mod=-o,	!LO:LB:g=original	!LO:MO:mod=-o,	!	!	!	!LO:MO:mod=-o,	!	!	!	!
8A\	.	.	8cc#\	.	16a\	.	8AA/	-o	8c#\	-o	.	.	8ee\	-o	.	.	.	.
.	.	.	.	.	16cc#\	.	.	.	.	.	.	.	.	.	.	.	.	.
!	!	!	!	!	!	!	!	!	!	!LO:MO:mod=et	!	!	!	!	!	!	!	!
8A\J	.	.	8cc#\J	.	16ee\	.	8A\	et	8c#\	&	8a\	et	8ee\	et	8r	8r	.	.
.	.	.	.	.	16gg\JJ	.	.	.	.	.	.	.	.	.	.	.	.	.
!	!	!	!	!	!	!	!	!	!	!	!	!	!	!	!	!	!LO:LB:g=original	!
=110	=110	=110	=110	=110	=110	=110	=110	=110	=110	=110	=110	=110	=110	=110	=110	=110	=110	=110
!	!	!	!	!	!	!	!	!LO:MO:mod=nunc,	!	!LO:MO:mod=nunc,	!	!LO:MO:mod=nunc,	!	!LO:MO:mod=nunc,	!	!	!	!
8A\L	6 4	.	8dd\L	.	16ff#\LL	.	4A\	nunc	4d\	nunc	4a\	nunc	4ff#\	nunc	4AA/	4a/	4.d\	4.f#\
.	.	.	.	.	16dd\	.	.	.	.	.	.	.	.	.	.	.	.	.
8A\	.	.	8dd\	.	16bb\	.	.	.	.	.	.	.	.	.	.	.	.	.
.	.	.	.	.	16aa\	.	.	.	.	.	.	.	.	.	.	.	.	.
!	!	!	!	!	!	!	!	!	!	!LO:MO:mod=et	!	!	!	!	!	!	!	!
8A\J	.	.	8dd\J	.	16gg\	.	8A\	et	8d\	&	8a\	et	8ff#\	et	8r	8r	.	.
.	.	.	.	.	16ff#\JJ	.	.	.	.	.	.	.	.	.	.	.	.	.
=111	=111	=111	=111	=111	=111	=111	=111	=111	=111	=111	=111	=111	=111	=111	=111	=111	=111	=111
8A\L	5 3	.	8cc#\L	.	16ee\LL	.	4A\	sem-	8c#\	sem-	8a\	sem-	8ee\	sem-	4AA/	4a/	4.A/	4.e\
.	.	.	.	.	16cc#\	.	.	.	.	.	.	.	.	.	.	.	.	.
!	!	!	!	!	!	!	!	!	!	!LO:MO:mod=-per,	!	!LO:MO:mod=-per,	!	!LO:MO:mod=-per,	!	!	!	!
8A\	.	.	8cc#\	.	16a\	.	.	.	8c#\	-per	8a\	-per	8ee\	-per	.	.	.	.
.	.	.	.	.	16cc#\	.	.	.	.	.	.	.	.	.	.	.	.	.
!	!	!	!	!	!	!	!	!LO:MO:mod=-per,	!	!LO:MO:mod=et	!	!	!	!	!	!	!	!
8A\J	.	.	8cc#\J	.	16ee\	.	8A\	-per	8c#\	&	8a\	et	8ee\	et	8r	8r	.	.
.	.	.	.	.	16gg\JJ	.	.	.	.	.	.	.	.	.	.	.	.	.
!	!	!	!	!	!	!	!	!	!	!	!	!	!	!	!LO:LB:g=original	!	!	!
=112	=112	=112	=112	=112	=112	=112	=112	=112	=112	=112	=112	=112	=112	=112	=112	=112	=112	=112
!	!	!	!	!	!	!	!	!	!	!LO:MO:mod=nunc,	!	!LO:MO:mod=nunc,	!	!LO:MO:mod=nunc,	!	!	!	!
8A\L	6 4	.	8dd\L	.	16ff#\LL	.	8A\	et	4d\	nunc	4a\	nunc	4ff#\	nunc	4AA/	4a/	4.d\	4.f#\
.	.	.	.	.	16dd\	.	.	.	.	.	.	.	.	.	.	.	.	.
!	!	!	!	!	!	!	!	!LO:MO:mod=nunc,	!	!	!	!	!	!	!	!	!	!
8A\	.	.	8dd\	.	16bb\	.	8A\	nunc	.	.	.	.	.	.	.	.	.	.
.	.	.	.	.	16aa\	.	.	.	.	.	.	.	.	.	.	.	.	.
8A\J	.	.	8dd\J	.	16gg\	.	8A\	et	8d\	et	8a\	et	8ff#\	et	8r	8r	.	.
.	.	.	.	.	16ff#\JJ	.	.	.	.	.	.	.	.	.	.	.	.	.
!	!	!	!	!	!	!	!LO:LB:g=original	!	!	!	!LO:LB:g=original	!	!	!	!	!	!	!
=113	=113	=113	=113	=113	=113	=113	=113	=113	=113	=113	=113	=113	=113	=113	=113	=113	=113	=113
8A\L	5 3	.	8cc#\L	.	16ee\LL	.	8A\	sem-	8c#\	sem-	8a\	sem-	8ee\	sem-	8AA/L	8a/L	4.A/	4.e\
.	.	.	.	.	16cc#\	.	.	.	.	.	.	.	.	.	.	.	.	.
!	!	!	!	!	!	!	!	!LO:MO:mod=-per,	!	!LO:MO:mod=-per,	!	!LO:MO:mod=-per,	!	!LO:MO:mod=-per,	!	!	!	!
8A\	.	.	8cc#\	.	16a\	.	8A\	-per	8c#\	-per	8a\	-per	8ee\	-per	8AA/	8a/	.	.
.	.	.	.	.	16cc#\	.	.	.	.	.	.	.	.	.	.	.	.	.
!	!	!	!	!	!	!	!	!	!	!LO:MO:mod=et	!	!	!	!	!	!	!	!
8A\J	.	.	8cc#\J	.	16ee\	.	16A\	et	16c#\	&	16a\	et	16ee\	et	8AA/J	8a/J	.	.
.	.	.	.	.	16gg\JJ	.	16A\	in	16c#\	in	16a\	in	16ee\	in	.	.	.	.
!LO:LB:g=original	!	!	!	!	!	!	!	!	!	!	!	!	!	!	!	!LO:LB:g=original	!	!
=114	=114	=114	=114	=114	=114	=114	=114	=114	=114	=114	=114	=114	=114	=114	=114	=114	=114	=114
*	*	*	*	*	*tremolo	*	*	*	*	*	*	*	*	*	*	*	*	*
!	!	!	!	!	!	!	!	!	!	!LO:MO:mod=sae	!	!	!	!LO:MO:mod=sae-	!	!	!	!
8D\L	.	.	16dd\LL	.	16ff#\LL	.	8.d\	sae-	8d\	se-	8a\	sae-	8.ff#\	se-	4D/	8dd\	4.d\	4.f#\
.	.	.	16dd\	.	16ff#\	.	.	.	.	.	.	.	.	.	.	.	.	.
8D\	.	.	16dd\	.	16ff#\	.	.	.	8d\	-cu-	8a\	-cu-	.	.	.	4r	.	.
.	.	.	16dd\	.	16ff#\	.	16d\	-cu-	.	.	.	.	16ff#\	-cu-	.	.	.	.
8D\J	.	.	16dd\	.	16ff#\	.	8e\	-la	8d\	-la	8a\	-la	8ff#\	-la	8r	.	.	.
.	.	.	16dd\JJ	.	16ff#\JJ	.	.	.	.	.	.	.	.	.	.	.	.	.
!	!	!	!	!	!	!	!	!	!	!	!	!	!LO:LB:g=original	!	!	!	!	!
=115	=115	=115	=115	=115	=115	=115	=115	=115	=115	=115	=115	=115	=115	=115	=115	=115	=115	=115
!	!	!	!	!	!	!	!	!	!	!LO:MO:mod=sae-	!	!	!	!LO:MO:mod=sae-	!LO:TX:a:t=2:mod=	!LO:TX:a:t=2:mod=	!	!
!	!	!	!	!	!	!	!	!	!	!	!	!	!	!	!LO:N:vis=0	!LO:N:vis=0	!	!
8B\L	.	.	16dd\LL	.	16ff#\LL	.	4B\	sae-	4B\	se-	4f#\	sae-	4dd\	se-	2.r	2.r	4.d\	4.f#\
.	.	.	16dd\	.	16ff#\	.	.	.	.	.	.	.	.	.	.	.	.	.
8B\	.	.	16dd\	.	16ff#\	.	.	.	.	.	.	.	.	.	.	.	.	.
.	.	.	16dd\	.	16ff#\	.	.	.	.	.	.	.	.	.	.	.	.	.
8B\J	.	.	16dd\	.	16ff#\	.	8B\	-cu-	8B\	-cu-	8f#\	-cu-	8dd\	-cu-	.	.	.	.
.	.	.	16dd\JJ	.	16ff#\JJ	.	.	.	.	.	.	.	.	.	.	.	.	.
=116	=116	=116	=116	=116	=116	=116	=116	=116	=116	=116	=116	=116	=116	=116	=116	=116	=116	=116
!	!	!	!	!	!LO:TX:t=P:problem=takt zapisany repetycją	!	!	!	!	!	!	!	!	!	!	!	!	!
!	!	!	!	!	!LO:MO:mod=16ff#\LL	!	!	!	!	!	!	!	!	!	!	!	!	!
8G\L	6 5	.	16dd\LL	.	16ff#\LLyy	.	4G\	-lo-	4B\	-lo-	4e\	-lo-	4dd\	-lo-	.	.	4.d\	4.e\
!	!	!	!	!	!LO:MO:mod=16ff#\	!	!	!	!	!	!	!	!	!	!	!	!	!
.	.	.	16dd\	.	16ff#\yy	.	.	.	.	.	.	.	.	.	.	.	.	.
!	!	!	!	!	!LO:MO:mod=16ff#\	!	!	!	!	!	!	!	!	!	!	!	!	!
8G\	.	.	16dd\	.	16ff#\yy	.	.	.	.	.	.	.	.	.	.	.	.	.
!	!	!	!	!	!LO:MO:mod=16ff#\	!	!	!	!	!	!	!	!	!	!	!	!	!
.	.	.	16dd\	.	16ff#\yy	.	.	.	.	.	.	.	.	.	.	.	.	.
!	!	!	!	!	!LO:MO:mod=16ff#\	!	!	!LO:MO:mod=-rum.	!	!LO:MO:mod=-rum.	!	!LO:MO:mod=-rum.	!	!LO:MO:mod=-rum.	!	!	!	!
8G\J	.	.	16dd\	.	16ff#\yy	.	8G\	-rum	8B\	-rum	8e\	-rum	8dd\	-rum	.	.	.	.
!	!	!	!	!	!LO:MO:mod=16ff#\JJ	!	!	!	!	!	!	!	!	!	!	!	!	!
.	.	.	16dd\JJ	.	16ff#\JJyy	.	.	.	.	.	.	.	.	.	.	.	.	.
=117	=117	=117	=117	=117	=117	=117	=117	=117	=117	=117	=117	=117	=117	=117	=117	=117	=117	=117
!	!	!	!	!	!	!	!	!LO:MO:mod=A-	!	!LO:MO:mod=A-	!	!LO:MO:mod=A-	!	!LO:MO:mod=A-	!	!	!	!
8A\L	.	.	16cc#\LL	.	16ee\LL	.	4.A\	a-	4.A\	a-	4.e\	am-	4.cc#\	a-	8r	8r	4.A/	4.e\
.	.	.	16cc#\	.	16ee\	.	.	.	.	.	.	.	.	.	.	.	.	.
8A\	.	.	16cc#\	.	16ee\	.	.	.	.	.	.	.	.	.	8AA/L	8a/L	.	.
.	.	.	16cc#\	.	16ee\	.	.	.	.	.	.	.	.	.	.	.	.	.
8A\J	.	.	16cc#\	.	16ee\	.	.	.	.	.	.	.	.	.	8AA/J	8a/J	.	.
.	.	.	16cc#\JJ	.	16ee\JJ	.	.	.	.	.	.	.	.	.	.	.	.	.
*Xtremolo	*	*	*Xtremolo	*	*Xtremolo	*	*	*	*	*	*	*	*	*	*	*	*	*
=118	=118	=118	=118	=118	=118	=118	=118	=118	=118	=118	=118	=118	=118	=118	=118	=118	=118	=118
!	!	!	!	!	!	!	!	!LO:MO:mod=-m(en),	!	!LO:MO:mod=-m(en),	!	!LO:MO:mod=-m(en),	!	!LO:MO:mod=-m(en),	!	!	!	!
8D\	.	.	8dd\	.	8ff# 8a 8d\	.	8D\	-m(en)	8A\	-m(en)	8f#\	-(en)	8dd\	-m(en)	8D/	8dd\	8d\	8f#\
8r	.	.	8r	.	8r	.	8r	.	8r	.	8r	.	8r	.	8r	8r	8r	8r
*	*	*	*	*	*	*	*	*	*	*	*	*ij	*	*	*	*	*	*
8AA/	.	.	8cc# 8e\	.	8ee 8a\	.	8A\	a-	8c#\	a-	8a\	a-	8ee\	a-	8AA/	8a/	8A/	8e\
=119	=119	=119	=119	=119	=119	=119	=119	=119	=119	=119	=119	=119	=119	=119	=119	=119	=119	=119
!	!	!	!	!	!	!	!	!LO:MO:mod=-m(en).	!	!LO:MO:mod=-m(en).	!	!LO:MO:mod=-m(en).	!	!LO:MO:mod=-m(en).	!	!	!	!LO:N:vis=8
4DD/	.	.	4dd 4f#\	.	4ff# 4a 4d/	.	4D\	-m(en)	4.d\	-m(en)	4a\	-m(en)	4ff#\	-m(en)	4D/	4d/	4F#/	4d\
*	*	*	*	*	*	*	*	*	*	*	*	*Xij	*	*	*	*	*	*
8r	.	.	8r	.	8r	.	8r	.	.	.	8r	.	8r	.	8r	8r	8r	8ryy
==	==	==	==	==	==	==	==	==	==	==	==	==	==	==	==	==	==	==
*-	*-	*-	*-	*-	*-	*-	*-	*-	*-	*-	*-	*-	*-	*-	*-	*-	*-	*-
!!!system-decoration: [(g1)][(g2)][(g3)][(g4)]g5
!!!filter-modern: sic -sq | shed -e "s/LO:DY:(a|b|rj)/LO:dy:$1/L" | shed -e "s/^(\d+[\/\\]right)/$1yy/I; s/^(\d+[\/\\]left)/$1yy/I" | autostem -r | tie -s | humtr -p | shed -e "s/TX(.*):t=P:/tx$1:t=P:/LG" | shed -e "s/N:vis=/N:VIS=/L" | modori -m
!!!ENC: Andrzej Gręziak
!!!END: 2020-07-19
!!!ENC: Marta Lawrence
!!!END: 2021-01-15
!!!ENC-modern: Katarzyna Serwa
!!!END-modern: 2022-07-02
